<?xml version="1.0" encoding="UTF-8"?>
<map version="1.10" tiledversion="1.12.2" orientation="orthogonal" renderorder="right-down" width="112" height="96" tilewidth="16" tileheight="16" infinite="0" nextlayerid="8" nextobjectid="3">
 <editorsettings>
  <chunksize width="112" height="96"/>
  <export target="../../public/assets/maps/map_3.json" format="json"/>
 </editorsettings>
 <tileset firstgid="1" source="../tileset/scene_1.tsx"/>
 <layer id="6" name="terrain" width="112" height="96">
  <data encoding="csv">
0,0,0,0,0,0,0,0,0,0,0,0,0,0,0,0,0,0,0,0,0,0,0,0,0,0,0,0,0,0,0,0,0,0,0,0,0,0,0,0,0,0,0,0,0,0,0,0,0,0,0,0,0,0,0,0,0,0,0,0,0,0,0,0,0,0,0,0,0,0,0,0,0,0,0,0,0,0,0,0,0,0,0,0,0,0,0,0,0,0,0,0,0,0,0,0,0,0,0,0,0,0,0,0,0,0,0,0,0,0,0,0,
0,0,0,0,0,0,0,0,0,0,0,0,0,0,0,0,0,0,0,0,0,0,0,0,0,0,0,0,0,0,0,0,0,0,0,0,0,0,0,0,0,0,0,0,0,0,0,0,0,0,0,0,0,0,0,0,0,0,0,0,0,0,0,0,0,0,0,0,0,0,0,0,0,0,0,0,0,0,0,0,0,0,0,0,0,0,0,0,0,0,0,0,0,0,0,0,0,0,0,0,0,0,0,0,0,0,0,0,0,0,0,0,
0,0,0,0,0,0,0,0,0,0,0,0,0,0,0,0,0,0,0,0,0,0,0,0,0,0,0,0,0,0,0,0,0,0,0,0,0,0,0,0,0,0,0,0,0,0,0,0,0,0,0,0,0,0,0,0,0,0,0,0,0,0,0,0,0,0,0,0,0,0,0,0,0,0,0,0,0,0,0,0,0,0,0,0,0,0,0,0,0,0,0,0,0,0,0,0,0,0,0,0,0,0,0,0,0,0,0,0,0,0,0,0,
0,0,0,0,0,0,0,0,0,0,0,0,0,0,0,0,0,0,0,0,0,0,0,0,0,0,0,0,0,0,0,0,0,0,0,0,0,0,0,0,0,0,0,0,0,0,0,0,0,0,0,0,0,0,0,0,0,0,0,0,0,0,0,0,0,0,0,0,0,0,0,0,0,0,0,0,0,0,0,0,0,0,0,0,0,0,0,0,0,0,0,0,0,0,0,0,0,0,0,0,0,0,0,0,0,0,0,0,0,0,0,0,
0,0,0,0,0,0,0,0,0,0,0,0,0,0,0,0,0,0,0,0,0,0,0,0,0,0,0,0,0,0,0,0,0,0,0,0,0,0,0,0,0,0,0,0,0,0,0,0,0,0,0,0,0,0,0,0,0,0,0,0,0,0,0,0,0,0,0,0,0,0,0,0,0,0,0,0,0,0,0,0,0,0,0,0,0,0,0,0,0,0,0,0,0,0,0,0,0,0,0,0,0,0,0,0,0,0,0,0,0,0,0,0,
0,0,0,0,0,0,0,0,0,0,0,0,0,0,0,0,0,0,0,0,0,0,0,0,0,0,0,0,0,0,0,0,0,0,0,0,0,0,0,0,0,0,0,0,0,0,0,0,0,0,0,0,0,0,0,0,0,0,0,0,0,0,0,0,0,0,0,0,0,0,0,0,0,0,0,0,0,0,0,0,0,0,0,0,0,0,0,0,0,0,0,0,0,0,0,0,0,0,0,0,0,0,0,0,0,0,0,0,0,0,0,0,
0,0,0,0,0,0,0,0,0,0,0,0,0,0,0,0,0,0,0,0,0,0,0,0,0,0,0,0,0,0,0,0,0,0,0,0,0,0,0,0,0,0,0,0,0,0,0,0,0,0,0,0,0,0,0,0,0,0,0,0,0,0,0,0,0,0,0,0,0,0,0,0,0,0,0,0,0,0,0,0,0,0,0,0,0,0,0,0,0,0,0,0,0,0,0,0,0,0,0,0,0,0,0,0,0,0,0,0,0,0,0,0,
0,0,0,0,0,0,0,0,0,0,0,0,0,0,0,0,0,0,0,0,0,0,0,0,0,0,0,0,0,0,0,0,0,0,0,0,0,0,0,0,0,0,0,0,0,0,0,0,0,0,0,0,0,0,0,0,0,0,0,0,0,0,0,0,0,0,0,0,0,0,0,0,0,0,0,0,0,0,0,0,0,0,0,0,0,0,0,0,0,0,0,0,0,0,0,0,0,0,0,0,0,0,0,0,0,0,0,0,0,0,0,0,
0,0,0,0,0,0,0,0,0,0,0,0,0,0,0,0,0,0,0,0,0,0,0,0,0,0,0,0,0,0,0,0,0,0,0,0,0,0,0,0,0,0,0,0,0,0,0,0,0,0,0,0,0,0,0,0,0,0,0,0,0,0,0,0,0,0,0,0,0,0,0,0,0,0,0,0,0,0,0,0,0,0,0,0,0,0,0,0,0,0,0,0,0,0,0,0,0,0,0,0,0,0,0,0,0,0,0,0,0,0,0,0,
0,0,0,0,0,0,0,0,0,0,0,0,0,0,0,0,0,0,0,0,0,0,0,0,0,0,0,0,0,0,0,0,0,0,0,0,0,0,0,0,0,0,0,0,0,0,0,0,0,0,0,0,0,0,0,0,0,0,0,0,0,0,0,0,0,0,0,0,0,0,0,0,0,0,0,0,0,0,0,0,0,0,0,0,0,0,0,0,0,0,0,0,0,0,0,0,0,0,0,0,0,0,0,0,0,0,0,0,0,0,0,0,
0,0,0,0,0,0,0,0,0,0,0,0,0,0,0,0,0,0,0,0,0,0,0,0,0,0,0,0,0,0,0,0,0,0,0,0,0,0,0,0,0,0,0,0,0,0,0,0,0,0,0,0,0,0,0,0,0,0,0,0,0,0,0,0,0,0,0,0,0,0,0,0,0,0,0,0,0,0,0,0,0,0,0,0,0,0,0,0,0,0,0,0,0,0,0,0,0,0,0,0,0,0,0,0,0,0,0,0,0,0,0,0,
0,0,0,0,0,0,0,0,0,0,0,0,0,0,0,0,0,0,0,0,0,0,0,0,0,0,0,0,0,0,0,0,0,0,0,0,0,0,0,0,0,0,0,0,0,0,0,0,0,0,0,0,0,0,0,0,0,0,0,0,0,0,0,0,0,0,0,0,0,0,0,0,0,0,0,0,0,0,0,0,0,0,0,0,0,0,0,0,0,0,0,0,0,0,0,0,0,0,0,0,0,0,0,0,0,0,0,0,0,0,0,0,
0,0,0,0,0,0,0,0,0,0,0,0,0,0,0,0,0,0,0,0,0,0,0,0,0,0,0,0,0,0,0,0,0,0,0,0,0,0,0,0,0,0,0,0,0,0,0,0,0,0,0,0,0,0,0,0,0,0,0,0,0,0,0,0,0,0,0,0,0,0,0,0,0,0,0,0,0,0,0,0,0,0,0,0,0,0,0,0,0,0,0,0,0,0,0,0,0,0,0,0,0,0,0,0,0,0,0,0,0,0,0,0,
0,0,0,0,0,0,0,0,0,0,0,0,0,0,0,0,0,0,0,0,0,0,0,0,0,0,0,0,0,0,0,0,0,0,0,0,0,0,0,0,0,0,0,0,0,0,0,0,0,0,0,0,0,0,0,0,0,0,0,0,0,0,0,0,0,0,0,0,0,0,0,0,0,0,0,0,0,0,0,0,0,0,0,0,0,0,0,0,0,0,0,0,0,0,0,0,0,0,0,0,0,0,0,0,0,0,0,0,0,0,0,0,
0,0,0,0,46,47,46,47,47,46,46,46,47,47,46,46,46,47,46,46,46,46,46,47,46,47,47,46,47,47,47,47,46,47,46,47,47,47,46,46,46,47,47,47,46,47,47,47,47,46,47,47,46,47,47,47,46,46,47,46,47,46,46,47,46,47,47,47,47,47,46,47,46,47,46,47,47,46,47,46,47,47,47,46,47,47,47,46,46,46,46,46,46,47,46,47,46,47,46,46,0,0,0,0,0,0,0,0,0,0,0,0,
0,0,0,0,47,47,46,47,47,46,46,47,47,47,46,47,47,47,47,46,46,46,46,46,47,46,46,47,47,46,46,46,46,46,47,47,46,47,47,47,47,46,46,46,46,47,47,47,47,47,46,46,47,47,46,47,47,47,47,47,46,46,46,46,46,47,47,46,46,47,46,47,47,46,46,47,47,47,46,47,47,46,46,46,46,46,47,47,47,46,47,46,46,47,46,47,46,46,47,47,0,0,0,0,0,0,0,0,0,0,0,0,
0,0,0,0,47,46,47,46,47,46,47,47,46,46,47,46,47,46,46,47,46,47,46,46,46,46,47,47,47,46,47,47,46,46,47,46,46,47,46,46,46,46,47,47,46,47,47,47,46,47,46,46,47,47,47,46,46,47,47,47,46,46,47,47,47,46,46,47,47,47,47,47,47,47,46,46,47,46,46,46,47,47,47,46,47,47,47,46,46,47,47,47,46,47,47,46,46,46,47,46,0,0,0,0,0,0,0,0,0,0,0,0,
0,0,0,0,46,47,46,46,46,47,46,47,46,46,47,47,46,46,46,47,47,46,46,46,47,46,46,47,47,47,46,46,47,47,46,46,47,46,46,47,47,46,46,47,46,47,46,46,47,47,47,46,47,46,46,47,46,47,47,46,47,47,46,47,47,47,46,46,46,46,46,46,47,47,47,47,47,47,47,46,46,46,47,46,47,46,46,47,46,46,47,46,47,47,47,46,46,46,47,47,0,0,0,0,0,0,0,0,0,0,0,0,
0,0,0,0,47,46,46,47,47,46,46,47,47,47,46,47,46,46,46,47,46,46,46,47,46,46,47,46,47,47,46,46,46,47,47,47,46,47,47,47,47,47,46,46,46,46,46,46,46,47,47,47,46,47,46,46,47,47,46,47,47,46,47,47,47,46,47,47,46,47,46,46,47,47,47,46,46,47,47,46,47,46,47,46,47,46,47,47,46,46,47,46,47,46,47,46,47,46,46,47,0,0,0,0,0,0,0,0,0,0,0,0,
0,0,0,0,46,47,47,47,47,46,46,46,47,47,46,46,47,46,47,46,47,47,47,46,47,46,47,46,47,47,46,47,47,46,47,46,47,46,47,47,47,46,46,46,47,47,46,47,47,47,46,46,47,46,46,47,47,46,47,47,46,46,47,46,46,46,46,47,47,46,47,47,47,47,46,46,46,46,46,47,47,47,47,46,46,47,47,47,46,47,46,47,46,46,47,47,46,46,46,47,0,0,0,0,0,0,0,0,0,0,0,0,
0,0,0,0,46,46,46,46,46,46,46,47,46,47,47,47,47,46,47,46,46,46,46,47,46,47,46,46,47,46,46,46,47,47,46,46,47,47,47,46,46,46,47,46,46,47,46,47,46,46,46,46,47,46,46,47,47,46,47,46,46,47,47,46,46,47,47,46,46,47,47,46,47,47,46,46,47,47,47,47,47,46,47,47,47,47,46,46,47,47,46,46,46,46,47,46,47,47,46,46,0,0,0,0,0,0,0,0,0,0,0,0,
0,0,0,0,47,47,46,47,47,47,47,46,47,47,47,46,47,47,47,47,46,47,46,47,47,46,47,46,47,47,47,47,46,46,47,47,46,46,47,47,47,46,47,47,46,47,47,47,47,46,46,46,47,47,47,47,47,47,46,46,46,46,46,46,46,47,47,46,47,46,46,46,47,47,47,47,47,46,47,46,47,46,47,46,47,47,47,46,47,47,46,46,47,46,47,46,47,47,47,47,0,0,0,0,0,0,0,0,0,0,0,0,
0,0,0,0,47,46,47,46,47,47,46,47,46,46,46,46,47,46,46,46,47,46,47,46,46,47,47,47,46,47,47,47,47,46,47,46,46,47,47,46,47,47,47,47,47,47,47,46,46,46,46,46,47,47,47,46,46,46,47,47,47,47,47,46,46,47,47,47,47,47,46,46,47,47,46,47,47,47,47,46,47,46,47,46,46,46,46,47,46,47,47,46,46,46,46,47,46,46,47,46,0,0,0,0,0,0,0,0,0,0,0,0,
0,0,0,0,46,46,47,46,46,46,46,47,47,46,46,47,47,46,46,46,47,47,47,46,47,46,47,47,46,47,47,47,47,47,46,46,46,46,46,47,47,46,46,47,46,47,47,46,47,47,46,46,46,47,47,46,47,47,46,46,46,47,47,46,47,47,46,47,46,46,47,46,46,47,46,46,47,46,46,47,47,46,46,47,47,47,47,46,47,47,46,46,46,47,47,46,47,46,46,47,0,0,0,0,0,0,0,0,0,0,0,0,
0,0,0,0,47,46,47,46,46,46,46,46,46,47,46,47,47,46,46,46,46,47,46,46,46,46,46,46,46,46,47,46,47,47,47,47,46,46,47,46,47,47,47,46,46,47,46,47,46,47,47,47,47,47,46,46,47,46,46,47,47,46,47,46,47,47,46,46,46,47,46,46,47,47,46,47,46,46,47,46,46,46,47,47,46,47,47,47,47,47,46,46,46,47,47,46,47,47,47,46,0,0,0,0,0,0,0,0,0,0,0,0,
0,0,0,0,47,46,46,47,47,46,47,46,46,46,47,47,46,47,46,46,46,46,47,46,47,47,46,47,46,47,47,46,47,46,47,47,46,47,46,46,47,47,47,47,47,46,46,46,46,46,47,46,47,47,47,47,47,46,46,46,46,46,47,47,46,47,46,47,47,47,47,47,46,46,46,46,46,47,46,46,46,47,47,47,47,47,47,46,47,46,46,47,46,47,46,47,46,46,46,46,0,0,0,0,0,0,0,0,0,0,0,0,
0,0,0,0,47,47,47,47,47,47,46,47,47,46,46,47,47,47,47,47,46,46,47,47,46,46,47,46,46,46,46,47,47,46,46,47,46,46,47,46,46,47,47,47,46,46,46,47,47,46,46,47,47,46,46,47,47,46,47,46,46,46,47,46,47,46,47,47,47,47,46,47,46,46,46,46,47,46,46,47,46,47,47,47,47,46,47,47,47,46,46,46,47,47,46,46,46,46,46,47,0,0,0,0,0,0,0,0,0,0,0,0,
0,0,0,0,46,47,47,46,46,47,46,46,46,46,47,47,46,47,47,46,47,47,47,47,46,46,46,46,47,46,46,46,46,46,46,47,47,46,47,47,46,47,46,46,47,47,47,47,47,46,47,46,46,47,47,46,46,46,47,46,47,47,46,47,46,46,46,46,46,47,46,46,46,47,47,47,46,46,46,47,46,47,47,47,46,47,46,46,47,46,46,47,47,46,47,47,46,47,47,46,0,0,0,0,0,0,0,0,0,0,0,0,
0,0,0,0,46,47,47,46,47,46,46,47,46,47,47,46,47,46,47,47,47,46,46,46,47,46,46,46,47,47,46,46,46,47,47,47,47,47,47,47,47,47,47,47,46,46,47,46,47,46,47,46,47,46,46,47,46,47,47,46,46,46,47,46,47,46,46,47,47,46,46,46,47,46,46,46,46,46,47,46,47,46,47,47,47,47,46,47,46,46,46,47,46,46,47,46,46,46,47,46,0,0,0,0,0,0,0,0,0,0,0,0,
0,0,0,0,47,47,46,47,47,46,47,46,46,46,47,46,46,47,46,47,47,47,46,47,46,46,46,47,46,47,47,46,47,46,46,46,46,47,46,46,47,46,47,46,46,46,47,47,46,47,46,46,46,46,46,46,46,47,47,46,47,47,47,47,47,46,46,46,47,46,47,47,47,46,47,46,47,46,46,46,47,46,47,46,46,46,46,47,46,46,47,46,46,46,47,47,47,47,47,46,0,0,0,0,0,0,0,0,0,0,0,0,
0,0,0,0,47,47,47,47,47,46,47,47,47,46,47,47,47,46,47,46,46,47,47,46,46,47,47,46,46,46,46,46,46,46,46,47,46,47,46,47,47,46,46,46,47,47,47,46,46,47,46,47,46,46,46,46,47,46,47,46,47,47,47,47,47,46,47,47,46,46,47,47,47,46,46,47,46,46,46,46,46,47,46,47,47,46,46,47,46,47,47,47,47,46,47,46,47,46,47,47,0,0,0,0,0,0,0,0,0,0,0,0,
0,0,0,0,46,46,46,46,46,46,47,46,46,46,46,46,46,47,46,47,47,46,46,47,47,47,46,46,46,46,46,46,46,46,46,47,47,47,47,47,46,47,46,47,47,46,46,47,46,47,47,47,47,46,46,47,47,46,46,46,47,47,46,46,46,47,46,46,46,47,46,46,46,46,46,46,46,46,47,47,47,47,47,46,46,47,46,47,47,46,47,46,46,46,47,46,46,46,47,46,0,0,0,0,0,0,0,0,0,0,0,0,
0,0,0,0,46,46,47,46,47,47,46,47,46,46,46,46,47,47,47,47,47,47,47,47,47,46,47,47,46,47,47,47,47,47,47,47,46,47,47,47,46,47,47,46,46,46,47,47,47,47,46,47,47,47,46,46,46,47,47,46,47,47,46,46,47,46,47,46,47,46,46,46,47,47,46,46,47,46,46,47,46,46,47,47,47,46,46,47,46,47,47,46,46,46,47,47,46,46,47,47,0,0,0,0,0,0,0,0,0,0,0,0,
0,0,0,0,47,46,47,46,47,47,46,46,47,47,46,46,46,46,47,46,46,47,46,46,46,46,47,47,47,46,46,46,47,47,47,47,46,46,46,46,47,46,46,46,47,47,47,47,47,46,47,46,47,46,46,46,46,46,47,46,46,47,47,46,47,47,47,47,47,47,46,46,47,46,46,47,47,46,46,46,47,46,46,47,47,46,46,46,47,47,46,47,47,46,46,46,46,47,46,46,0,0,0,0,0,0,0,0,0,0,0,0,
0,0,0,0,47,47,47,46,46,47,47,47,46,46,47,46,46,47,47,47,46,46,47,47,47,46,46,47,46,47,46,46,46,46,47,46,46,47,46,47,46,47,47,47,46,46,47,47,47,47,46,46,47,46,47,46,47,47,47,47,47,46,47,46,47,46,47,46,47,46,46,46,47,47,47,47,46,46,46,47,47,46,46,46,46,46,47,46,46,46,46,47,47,47,46,47,46,46,46,46,0,0,0,0,0,0,0,0,0,0,0,0,
0,0,0,0,46,47,47,46,46,46,47,46,46,46,47,46,47,47,47,46,46,46,47,47,47,46,47,47,47,46,47,46,46,46,46,47,46,46,46,46,46,46,47,46,46,47,46,46,47,46,46,47,47,47,46,47,47,46,46,47,47,47,46,46,47,47,47,47,47,47,46,46,46,47,47,46,46,46,47,46,46,46,47,47,47,46,47,47,47,47,46,47,46,46,47,46,46,46,47,46,0,0,0,0,0,0,0,0,0,0,0,0,
0,0,0,0,46,47,47,47,47,47,46,46,47,46,46,47,46,47,47,47,46,47,46,47,47,47,46,47,47,47,46,46,46,46,46,46,47,47,46,46,46,47,47,47,46,46,46,47,47,46,46,46,47,47,47,47,47,46,46,47,46,46,46,47,47,46,46,47,47,46,46,47,47,47,47,47,46,46,47,47,46,47,46,47,47,46,47,46,46,46,47,46,47,46,46,47,47,47,47,46,0,0,0,0,0,0,0,0,0,0,0,0,
0,0,0,0,47,47,46,47,46,47,46,47,47,46,46,46,47,46,47,47,47,46,46,47,46,47,47,46,46,46,47,46,46,46,46,46,46,47,47,47,47,46,46,46,46,46,47,47,46,46,47,47,47,47,46,47,46,46,46,46,46,46,47,46,47,46,46,47,46,46,47,46,46,47,47,46,46,46,46,46,47,47,46,46,47,46,47,47,47,46,46,46,47,46,46,46,46,46,46,46,0,0,0,0,0,0,0,0,0,0,0,0,
0,0,0,0,46,47,46,47,47,46,47,47,46,46,47,47,46,47,47,47,47,47,47,46,46,47,46,47,47,47,46,46,47,46,46,46,46,47,47,46,46,46,47,47,47,46,46,46,46,47,47,46,47,46,46,47,47,47,46,47,47,46,46,46,46,47,47,46,47,46,46,46,46,47,46,47,46,46,47,46,47,46,47,47,46,47,46,46,46,47,47,46,46,47,46,46,46,47,46,46,0,0,0,0,0,0,0,0,0,0,0,0,
0,0,0,0,47,46,47,47,47,47,47,47,47,46,47,47,46,46,47,47,47,47,46,46,47,47,46,47,47,46,47,46,47,46,47,46,47,46,46,47,46,47,47,47,46,47,47,46,46,47,46,46,46,47,46,47,46,46,46,46,46,46,46,47,47,47,47,46,47,47,46,47,47,47,47,46,47,46,46,47,47,47,46,46,46,47,46,47,47,46,46,47,46,47,46,47,47,47,47,47,0,0,0,0,0,0,0,0,0,0,0,0,
0,0,0,0,46,47,47,47,46,47,46,47,46,46,46,46,47,46,47,47,46,46,46,47,47,47,47,46,47,46,46,47,47,47,47,46,46,46,47,47,47,47,46,47,46,47,47,46,46,47,47,47,47,46,47,46,46,47,47,47,47,47,46,47,46,46,47,46,47,46,46,47,46,47,47,47,46,46,46,47,47,47,47,46,47,46,47,46,46,46,47,47,46,46,46,46,46,46,46,47,0,0,0,0,0,0,0,0,0,0,0,0,
0,0,0,0,47,46,46,47,47,46,47,47,47,46,47,46,46,46,46,46,46,47,46,47,47,46,47,46,47,46,47,46,46,46,47,47,47,46,47,46,47,47,47,47,47,46,46,46,47,47,47,47,46,47,46,46,46,47,47,46,47,46,47,47,46,47,46,47,47,46,46,47,47,46,46,46,46,47,46,47,47,46,47,46,46,47,46,46,46,47,47,47,47,46,46,47,47,46,47,46,0,0,0,0,0,0,0,0,0,0,0,0,
0,0,0,0,46,47,47,47,47,47,47,47,47,47,47,46,47,46,46,47,46,46,46,46,46,46,47,46,46,46,47,47,46,47,47,46,46,46,47,46,47,46,46,46,46,47,46,47,47,47,46,47,47,46,46,46,46,46,46,47,47,46,46,47,47,47,46,47,47,47,47,47,46,46,47,47,46,46,47,47,47,46,47,47,46,47,46,46,46,47,46,47,46,46,46,46,47,47,46,46,0,0,0,0,0,0,0,0,0,0,0,0,
0,0,0,0,46,47,46,46,47,46,47,47,47,47,47,47,47,46,47,47,46,47,46,47,46,46,46,46,46,46,47,47,47,46,46,47,46,46,46,46,46,46,47,47,46,47,47,47,46,47,46,46,47,47,46,47,47,47,46,47,47,46,47,47,47,47,47,46,46,46,46,47,47,46,46,46,47,46,47,47,46,46,47,46,46,46,46,47,46,46,47,46,46,46,47,46,47,46,47,46,0,0,0,0,0,0,0,0,0,0,0,0,
0,0,0,0,46,46,46,46,47,46,46,46,47,46,46,47,46,47,47,47,47,47,47,47,46,46,47,46,47,46,46,47,46,47,47,47,46,46,46,46,46,47,46,46,47,47,47,46,47,47,47,47,47,47,46,46,46,47,47,47,46,47,47,46,47,46,47,47,47,46,47,47,47,47,47,47,46,46,47,47,47,46,47,47,46,46,46,46,47,46,46,47,47,46,46,46,47,46,47,46,0,0,0,0,0,0,0,0,0,0,0,0,
0,0,0,0,46,47,46,47,47,47,47,47,47,46,46,46,47,46,46,46,47,46,47,47,47,46,47,47,46,46,46,46,46,47,47,47,46,47,46,47,46,46,46,46,47,46,46,47,47,46,47,47,47,47,46,46,47,47,47,47,47,46,47,46,47,47,47,46,47,46,47,46,47,47,46,47,47,47,47,46,47,47,47,46,46,47,46,47,46,47,46,47,47,46,46,47,47,47,46,47,0,0,0,0,0,0,0,0,0,0,0,0,
0,0,0,0,46,47,46,47,46,46,46,46,47,46,46,47,47,46,47,46,47,47,47,46,46,46,46,47,47,47,46,47,46,47,47,46,47,46,46,47,46,46,47,46,46,46,46,46,47,47,46,46,46,46,47,47,47,47,47,46,47,47,47,47,47,47,47,47,47,46,47,47,47,47,47,46,46,46,46,46,47,46,46,46,47,47,46,46,46,46,46,46,46,47,46,47,47,47,46,46,0,0,0,0,0,0,0,0,0,0,0,0,
0,0,0,0,46,46,47,47,47,47,46,47,47,47,47,47,47,47,46,47,47,46,47,47,46,46,47,47,47,46,46,47,46,47,47,46,46,46,47,46,47,46,46,47,46,47,46,46,47,47,47,47,46,47,46,47,46,46,47,47,47,46,46,47,47,46,47,47,47,46,46,46,46,47,47,46,47,46,47,46,47,47,47,46,47,46,46,46,46,46,46,46,47,47,47,46,47,46,46,47,0,0,0,0,0,0,0,0,0,0,0,0,
0,0,0,0,47,46,46,46,46,47,47,46,46,47,47,46,47,46,47,46,46,46,47,46,47,47,47,47,47,47,46,46,47,47,46,46,47,46,47,46,47,46,46,46,46,46,46,46,46,47,46,47,47,47,47,46,46,46,46,46,47,47,47,47,47,47,47,46,46,47,46,46,47,47,47,46,46,47,46,46,47,47,47,46,47,47,47,46,46,46,46,47,47,46,46,47,47,47,47,47,0,0,0,0,0,0,0,0,0,0,0,0,
0,0,0,0,47,46,47,46,47,47,46,46,46,46,46,47,46,47,47,46,47,46,47,46,46,46,46,46,46,46,47,46,47,47,46,46,46,46,46,47,47,47,47,47,47,47,47,46,46,46,46,47,47,47,46,46,47,46,47,46,46,46,46,46,47,47,46,46,47,47,47,47,46,47,47,46,46,46,47,47,47,47,46,47,47,47,47,46,47,46,47,46,47,46,46,46,47,47,46,47,0,0,0,0,0,0,0,0,0,0,0,0,
0,0,0,0,47,47,46,47,46,47,46,47,47,47,46,47,46,46,47,46,47,46,47,46,47,46,47,46,47,47,47,47,47,46,46,46,47,46,47,46,46,46,46,47,47,47,47,46,47,46,47,46,47,46,47,46,46,47,47,46,46,46,47,47,46,46,46,46,46,46,46,46,47,46,47,47,47,47,46,46,46,47,47,47,46,47,46,47,47,47,47,47,46,47,46,46,47,46,46,47,0,0,0,0,0,0,0,0,0,0,0,0,
0,0,0,0,47,46,47,47,47,46,46,47,46,46,47,47,47,46,46,46,47,46,46,47,47,47,46,47,46,46,47,47,47,46,46,47,47,47,46,47,46,46,47,46,47,46,47,47,47,47,46,47,47,47,46,47,47,47,47,46,46,46,46,47,47,46,46,46,47,46,46,47,46,47,46,46,47,47,47,46,47,47,46,46,46,46,46,47,47,46,47,46,46,47,46,46,46,46,47,46,0,0,0,0,0,0,0,0,0,0,0,0,
0,0,0,0,46,46,46,47,47,47,46,47,46,46,47,46,47,47,47,46,47,47,47,46,46,47,46,47,46,46,47,46,47,46,46,47,46,47,46,46,46,46,46,46,46,46,46,46,47,46,46,46,47,46,47,47,46,47,47,47,46,47,46,47,47,47,47,47,47,47,47,46,46,46,46,46,46,46,46,46,46,46,47,46,47,46,47,46,47,46,46,47,46,46,47,46,47,46,46,46,0,0,0,0,0,0,0,0,0,0,0,0,
0,0,0,0,47,46,47,47,47,46,46,47,47,46,47,46,46,47,47,47,47,47,47,47,47,46,47,46,46,46,46,46,46,47,47,47,46,47,47,47,47,47,47,46,47,47,47,47,47,47,47,46,46,47,46,46,46,46,47,47,46,47,47,47,47,46,46,47,47,47,47,46,47,47,47,47,46,47,46,47,47,46,46,47,47,47,47,46,46,47,46,46,47,47,46,47,46,47,46,46,0,0,0,0,0,0,0,0,0,0,0,0,
0,0,0,0,47,46,46,46,46,46,46,47,46,47,47,47,46,46,47,47,47,46,47,46,46,46,47,47,46,46,47,46,46,47,46,47,47,47,47,47,47,46,46,47,46,46,46,46,46,46,46,47,47,46,46,46,46,47,46,47,46,47,46,46,47,46,47,46,46,46,47,47,46,46,47,47,47,47,46,47,47,46,47,47,46,46,46,46,47,47,47,46,46,47,46,47,47,47,47,46,0,0,0,0,0,0,0,0,0,0,0,0,
0,0,0,0,47,47,47,46,46,46,47,47,47,47,47,47,47,46,47,46,46,47,47,47,47,46,47,47,46,46,46,46,47,47,46,47,46,47,46,47,46,46,47,47,46,47,47,46,46,53,54,54,54,54,54,54,54,54,54,54,54,54,54,54,54,54,54,55,47,46,47,47,47,46,46,46,46,46,47,46,46,46,47,47,46,47,47,46,46,47,46,47,46,46,46,47,47,47,46,46,0,0,0,0,0,0,0,0,0,0,0,0,
0,0,0,0,47,46,46,46,47,47,47,46,46,46,47,46,46,46,46,46,47,46,46,47,46,47,47,47,46,46,46,46,46,46,47,46,46,46,47,46,47,47,47,47,46,46,47,47,46,61,45,62,45,45,45,45,62,62,45,62,62,45,62,62,45,62,62,63,46,47,47,46,47,46,47,46,46,47,46,46,47,46,46,47,46,47,46,46,46,47,46,47,47,47,47,46,47,46,46,47,0,0,0,0,0,0,0,0,0,0,0,0,
0,0,0,0,46,47,46,47,46,46,46,47,47,46,46,46,46,47,46,46,46,47,46,46,46,46,46,47,46,47,47,47,46,46,47,46,47,46,47,47,47,46,46,47,47,46,47,47,47,61,62,45,62,45,45,62,62,62,45,45,45,62,62,62,62,45,62,63,46,47,47,46,47,46,47,46,47,47,46,47,46,47,46,47,47,47,46,47,47,46,46,47,47,46,46,47,46,47,46,47,0,0,0,0,0,0,0,0,0,0,0,0,
0,0,0,0,47,47,47,47,47,47,47,46,46,46,47,46,47,46,47,46,46,47,46,46,46,46,47,46,47,47,47,47,46,47,47,46,47,47,47,47,47,47,47,47,46,47,46,46,47,61,62,62,62,62,45,62,62,45,62,62,45,45,45,62,45,62,62,63,47,46,46,47,46,47,47,47,47,46,47,46,46,46,46,47,47,47,47,46,47,47,47,46,47,47,46,47,46,46,47,47,0,0,0,0,0,0,0,0,0,0,0,0,
0,0,0,0,47,47,46,46,47,46,46,47,47,46,46,46,46,46,47,47,46,46,47,47,47,47,47,46,46,46,46,47,47,47,46,47,47,46,46,46,46,47,46,47,46,47,47,46,46,61,45,45,45,62,62,62,45,45,45,45,45,62,62,45,62,45,45,63,46,47,47,47,47,46,46,46,47,47,47,46,47,47,46,47,46,47,47,47,47,47,46,47,47,46,47,47,46,47,46,46,0,0,0,0,0,0,0,0,0,0,0,0,
0,0,0,0,47,47,47,47,47,46,47,47,46,47,47,47,46,46,46,47,47,47,46,47,47,46,47,46,47,46,47,46,47,46,47,46,46,46,46,47,47,46,46,46,47,47,46,46,46,61,62,45,45,45,45,62,45,45,45,45,62,62,62,45,62,62,45,63,46,46,46,47,46,46,47,46,47,47,46,46,46,47,46,47,46,46,46,46,47,46,46,46,46,46,46,46,47,46,46,46,0,0,0,0,0,0,0,0,0,0,0,0,
0,0,0,0,46,47,47,47,47,46,47,47,47,46,46,46,47,46,47,46,47,46,46,46,47,46,47,47,47,47,47,47,47,46,47,46,47,47,47,47,47,47,47,47,46,47,46,46,47,61,62,45,45,45,45,62,45,45,62,62,45,45,45,62,45,45,45,63,47,46,46,46,47,47,46,47,46,46,46,47,46,47,46,47,47,46,46,47,46,47,46,47,46,47,46,47,47,46,46,47,0,0,0,0,0,0,0,0,0,0,0,0,
0,0,0,0,46,46,46,47,47,47,47,46,47,47,46,47,46,47,46,47,47,47,46,47,46,46,46,46,46,46,47,46,46,47,47,46,47,46,46,47,46,46,46,47,46,47,47,46,46,61,45,62,62,62,62,62,45,45,45,62,45,62,45,45,45,62,45,63,47,46,46,46,47,47,47,47,46,47,47,46,47,47,47,46,47,47,46,47,47,47,46,47,46,46,47,46,47,47,47,46,0,0,0,0,0,0,0,0,0,0,0,0,
0,0,0,0,47,46,46,47,46,47,47,46,46,46,47,46,47,47,46,46,46,46,46,47,46,46,46,46,46,46,46,46,46,47,47,46,46,46,46,46,47,46,47,47,47,47,47,47,47,61,62,62,62,62,45,62,62,62,62,62,45,62,62,62,62,45,45,63,46,47,47,47,46,46,46,46,47,47,47,46,47,46,47,46,47,46,46,47,47,47,47,47,46,47,47,46,47,46,47,47,0,0,0,0,0,0,0,0,0,0,0,0,
0,0,0,0,47,46,46,46,46,47,46,46,47,47,46,47,47,47,47,47,47,46,47,47,47,47,47,46,46,46,46,47,47,47,47,46,47,47,47,47,46,46,46,47,47,47,47,46,47,69,70,70,60,45,45,59,70,70,70,70,70,70,70,70,70,70,70,71,47,47,46,46,46,47,47,47,47,47,47,46,47,46,47,46,47,47,46,46,47,47,46,47,46,46,46,46,46,47,47,47,0,0,0,0,0,0,0,0,0,0,0,0,
0,0,0,0,47,47,46,47,47,46,46,46,47,47,47,47,46,46,47,46,46,47,46,46,46,46,46,47,46,46,46,47,47,47,47,46,46,46,47,47,46,47,47,46,47,46,46,46,46,46,47,47,61,62,62,63,46,47,47,47,47,47,46,47,47,47,47,47,47,47,47,46,47,46,46,46,46,46,47,47,47,46,46,47,47,46,47,47,47,47,47,47,46,46,46,47,47,46,46,46,0,0,0,0,0,0,0,0,0,0,0,0,
0,0,0,0,46,46,47,47,46,47,47,46,46,47,47,46,47,46,47,46,46,46,47,46,46,47,46,47,46,47,47,47,47,47,47,46,47,47,47,47,47,47,46,46,46,47,47,47,47,47,46,47,61,62,62,63,46,46,46,46,47,47,46,46,46,47,46,47,47,46,46,47,46,46,46,47,47,46,47,46,47,46,47,47,47,46,46,47,47,47,47,47,47,46,46,46,47,46,46,46,0,0,0,0,0,0,0,0,0,0,0,0,
0,0,0,0,47,46,47,46,47,47,46,47,47,46,47,47,46,47,46,47,47,46,46,47,47,46,47,46,46,46,47,47,47,47,47,46,46,46,46,46,46,46,47,47,46,47,46,46,46,46,47,47,61,45,62,63,46,47,46,46,46,47,47,46,46,47,46,47,47,46,46,46,46,46,47,47,46,47,47,47,46,47,47,46,47,46,47,47,46,47,47,47,46,46,46,46,47,47,47,46,0,0,0,0,0,0,0,0,0,0,0,0,
0,0,0,0,46,46,47,46,47,46,47,46,47,46,46,47,47,47,47,46,46,46,46,47,46,46,46,46,46,47,47,46,47,47,46,47,46,46,46,47,46,47,47,47,47,47,47,46,47,46,46,46,61,62,45,63,46,47,47,46,46,46,46,47,47,47,47,46,46,47,46,47,47,47,46,47,47,47,47,46,47,47,46,47,47,46,47,47,47,46,46,46,46,46,47,47,46,46,47,46,0,0,0,0,0,0,0,0,0,0,0,0,
0,0,0,0,47,46,46,47,47,47,47,46,46,47,47,46,47,46,46,46,47,46,47,47,47,46,47,46,46,47,46,47,47,46,47,46,47,46,47,46,47,47,46,47,46,46,47,47,46,46,47,46,61,62,45,63,47,46,46,46,47,47,46,47,47,46,47,46,47,46,46,47,46,47,46,46,46,46,47,47,46,46,47,46,47,47,47,46,47,47,46,46,46,47,47,46,47,47,46,47,0,0,0,0,0,0,0,0,0,0,0,0,
0,0,0,0,47,47,47,46,47,47,47,46,46,47,46,46,46,47,46,47,46,47,47,47,47,47,47,46,47,46,47,46,46,47,47,47,46,46,47,46,47,46,46,46,47,53,54,54,54,54,54,54,68,62,62,63,47,47,47,46,47,47,47,46,47,47,46,47,47,47,47,47,46,47,47,47,46,46,46,46,47,46,46,46,47,46,46,46,46,47,47,47,47,47,47,46,46,47,46,46,0,0,0,0,0,0,0,0,0,0,0,0,
0,0,0,0,46,47,47,46,46,46,46,46,47,47,47,47,46,46,47,47,47,46,47,46,46,46,46,47,47,47,46,47,46,47,47,46,46,47,47,46,47,47,47,47,46,61,62,62,62,45,45,62,62,45,62,63,47,47,46,46,46,46,47,46,47,46,46,47,46,46,47,46,46,47,47,47,47,47,47,46,46,46,46,46,46,46,47,46,47,47,46,47,46,46,46,46,47,47,46,47,0,0,0,0,0,0,0,0,0,0,0,0,
0,0,0,0,47,46,47,47,46,47,46,47,47,47,46,46,47,47,46,47,46,46,47,46,47,46,46,47,47,47,47,46,47,47,47,47,46,46,47,46,46,47,47,47,47,69,70,70,70,70,70,70,60,45,62,63,46,47,47,47,47,46,47,46,47,46,47,46,47,47,46,47,47,46,46,46,46,46,47,46,46,46,46,47,47,46,46,47,46,46,46,47,47,47,47,46,47,46,46,46,0,0,0,0,0,0,0,0,0,0,0,0,
0,0,0,0,46,46,47,46,47,46,47,46,47,47,46,47,47,46,46,47,47,46,47,47,47,47,46,46,46,47,46,46,47,47,46,47,46,46,46,46,46,46,46,46,47,46,46,47,47,47,46,46,61,45,62,63,47,46,47,47,46,46,47,47,47,47,46,46,46,46,46,46,46,46,47,46,47,47,46,47,46,47,47,47,47,47,47,47,47,46,46,46,46,47,46,47,46,47,46,47,0,0,0,0,0,0,0,0,0,0,0,0,
0,0,0,0,46,46,47,46,47,47,46,47,46,47,47,47,46,47,46,46,47,46,46,46,47,46,46,47,47,46,46,46,46,47,46,47,47,46,46,47,47,47,46,47,47,47,46,46,47,47,46,47,61,62,62,63,47,47,46,46,46,46,47,47,46,46,46,46,47,46,47,47,47,46,46,46,46,47,47,47,46,47,46,46,46,46,47,46,47,46,46,47,47,46,47,47,46,46,47,46,0,0,0,0,0,0,0,0,0,0,0,0,
0,0,0,0,47,47,46,47,46,47,46,47,47,46,46,47,47,46,47,47,46,47,47,47,47,47,46,46,47,46,47,46,47,47,47,47,46,46,46,46,47,47,46,47,47,46,47,47,47,46,47,46,61,45,62,63,46,47,47,46,47,46,47,47,46,47,47,47,46,47,47,47,46,47,46,46,46,47,46,47,47,47,47,46,47,47,47,46,47,47,47,47,47,47,47,46,46,47,46,46,0,0,0,0,0,0,0,0,0,0,0,0,
0,0,0,0,47,47,47,46,47,46,47,47,47,47,46,46,46,47,46,47,46,47,47,46,46,47,47,46,47,46,46,46,47,46,47,46,47,46,46,47,47,47,46,46,46,46,47,46,47,46,47,47,61,62,62,63,47,46,46,46,47,47,46,47,47,46,47,47,46,46,46,46,46,46,46,47,47,47,46,46,46,46,46,47,46,46,47,46,46,46,47,46,46,47,46,46,47,46,47,46,0,0,0,0,0,0,0,0,0,0,0,0,
0,0,0,0,47,46,47,46,46,46,47,47,47,46,47,46,46,47,46,47,47,47,47,46,46,46,47,46,46,47,46,47,46,46,47,46,46,47,46,46,46,46,46,46,46,46,46,46,47,46,46,46,61,45,45,63,47,46,47,46,46,46,46,46,46,46,47,47,46,46,46,46,46,46,47,46,47,46,47,46,46,46,47,46,47,46,46,46,46,46,47,47,46,47,46,47,47,46,46,47,0,0,0,0,0,0,0,0,0,0,0,0,
0,0,0,0,47,47,47,46,47,47,46,47,46,47,47,47,47,46,46,47,47,47,47,47,46,47,46,47,46,46,47,46,46,46,46,47,47,46,47,47,47,46,46,47,46,47,46,46,46,46,53,54,68,45,62,67,54,54,54,54,54,55,47,46,46,47,47,47,47,46,47,47,46,47,47,46,47,46,46,46,46,46,47,46,47,47,47,46,47,46,47,47,46,47,46,46,47,46,46,46,0,0,0,0,0,0,0,0,0,0,0,0,
0,0,0,0,47,46,46,46,46,46,46,47,47,47,47,46,46,47,47,47,46,47,46,47,46,46,46,46,47,47,46,47,46,46,46,46,46,47,46,46,47,46,47,47,46,47,47,46,46,47,61,62,45,62,62,45,62,45,45,45,45,63,47,46,46,47,46,47,47,47,46,47,46,46,47,47,47,46,47,47,46,46,46,46,46,47,46,46,46,46,46,46,46,47,46,46,47,46,46,47,0,0,0,0,0,0,0,0,0,0,0,0,
0,0,0,0,47,47,47,47,46,47,46,47,46,47,46,47,47,46,47,47,46,46,47,46,46,47,47,47,46,46,47,46,46,46,47,46,46,47,47,46,47,46,47,46,46,46,47,47,46,46,61,45,62,45,45,45,62,45,62,62,62,63,46,46,46,47,46,46,46,47,47,47,47,46,47,47,47,46,46,46,47,47,46,47,47,47,46,46,47,47,47,46,46,46,47,47,46,46,47,46,0,0,0,0,0,0,0,0,0,0,0,0,
0,0,0,0,47,47,46,47,46,46,47,46,47,47,46,47,47,46,46,46,47,46,46,47,47,46,47,46,46,47,46,47,47,46,47,47,47,46,46,47,46,47,47,46,47,47,46,47,46,46,61,62,45,62,62,45,62,45,45,62,45,63,46,46,47,46,46,46,47,47,47,46,47,47,46,46,46,46,46,46,47,46,46,47,46,46,46,46,47,47,46,46,46,46,46,46,46,47,46,46,0,0,0,0,0,0,0,0,0,0,0,0,
0,0,0,0,47,46,47,47,46,46,46,47,47,47,46,46,47,47,46,47,47,47,46,47,47,46,47,47,47,47,46,46,46,46,47,47,46,47,46,47,46,46,46,46,47,46,47,47,47,47,69,70,70,70,70,70,70,70,70,70,70,71,47,46,47,47,46,47,46,46,47,46,47,47,47,46,46,46,46,46,46,46,47,47,47,46,46,46,46,46,46,46,46,46,47,47,46,46,47,47,0,0,0,0,0,0,0,0,0,0,0,0,
0,0,0,0,46,47,46,46,47,46,46,46,47,47,47,46,46,47,46,46,46,47,46,46,47,46,47,47,47,46,47,47,46,47,47,47,47,47,46,46,47,47,46,46,46,47,46,46,47,47,46,47,46,47,46,47,46,47,47,46,46,46,46,47,47,46,47,46,47,47,47,46,47,47,46,46,46,47,46,47,47,47,47,46,47,47,47,46,47,46,47,46,47,47,46,47,46,46,46,46,0,0,0,0,0,0,0,0,0,0,0,0,
0,0,0,0,47,47,47,46,47,46,47,47,46,47,47,47,46,46,47,47,47,47,47,47,46,46,46,47,46,46,46,46,46,47,46,46,46,46,46,47,47,47,47,46,46,47,46,46,46,47,47,46,47,46,47,46,46,46,47,47,46,47,46,47,47,46,46,46,46,47,46,47,47,46,47,47,46,47,46,46,46,47,47,47,47,47,47,47,47,46,47,47,47,47,47,46,47,47,46,46,0,0,0,0,0,0,0,0,0,0,0,0,
0,0,0,0,47,47,46,47,47,47,47,46,46,47,46,46,46,46,46,46,47,46,46,46,47,47,46,47,46,46,46,47,46,47,46,47,47,46,47,47,47,46,47,46,47,46,46,47,46,46,46,47,47,46,46,47,46,46,47,47,46,47,46,46,46,47,46,47,47,46,46,46,46,46,46,46,46,47,47,47,47,46,46,47,46,46,46,46,46,46,47,46,47,47,46,46,47,47,46,46,0,0,0,0,0,0,0,0,0,0,0,0,
0,0,0,0,47,47,46,47,47,47,47,46,47,46,46,47,47,47,46,47,47,47,47,46,46,46,46,46,46,46,47,46,46,47,47,46,47,46,46,47,47,47,47,47,47,46,46,46,46,46,46,47,47,46,46,47,47,47,46,46,46,46,46,46,47,47,46,47,47,46,46,47,46,47,47,46,46,46,46,47,46,47,46,47,46,46,47,46,46,46,47,47,47,46,46,46,47,46,47,47,0,0,0,0,0,0,0,0,0,0,0,0,
0,0,0,0,47,46,47,47,46,46,47,46,46,47,46,47,47,47,47,47,46,47,46,47,47,47,47,46,47,47,47,47,46,46,46,46,47,47,46,46,47,46,46,46,46,47,46,46,47,47,47,46,47,47,47,46,47,47,47,47,47,46,47,46,46,47,46,47,46,47,47,47,47,47,46,46,47,47,47,47,47,47,47,47,46,47,46,46,46,46,46,47,46,46,46,47,47,46,46,46,0,0,0,0,0,0,0,0,0,0,0,0,
0,0,0,0,46,46,47,46,47,47,46,46,47,46,46,46,47,46,47,47,47,47,46,46,47,47,47,47,47,47,47,46,47,47,46,47,47,47,46,46,47,47,46,46,47,47,46,46,47,47,47,47,47,47,47,46,47,46,47,46,47,47,46,46,47,47,46,47,47,47,46,47,47,46,47,46,46,46,46,46,46,46,46,46,46,47,46,46,46,47,46,47,46,47,46,47,46,46,46,46,0,0,0,0,0,0,0,0,0,0,0,0,
0,0,0,0,46,46,47,46,47,46,47,47,47,47,47,46,46,46,46,47,46,46,47,46,46,47,46,46,47,46,47,47,47,47,46,47,47,46,46,46,46,46,46,46,47,47,47,47,47,47,47,47,47,47,46,46,47,46,47,46,47,47,46,47,46,46,47,46,47,46,47,46,46,46,46,46,47,46,47,46,47,47,47,46,46,47,47,47,47,47,47,47,47,47,46,47,47,46,47,46,0,0,0,0,0,0,0,0,0,0,0,0,
0,0,0,0,47,46,47,47,46,47,46,46,46,46,46,46,47,46,47,46,46,47,47,47,46,46,47,47,47,47,46,46,46,46,46,46,46,47,47,46,47,46,46,47,46,46,47,47,46,46,47,46,46,46,47,47,47,46,47,47,47,47,46,46,46,46,47,46,46,46,47,47,46,47,46,47,46,47,47,46,46,47,47,46,46,47,46,46,47,47,47,46,46,46,47,46,47,46,47,46,0,0,0,0,0,0,0,0,0,0,0,0,
0,0,0,0,47,47,47,47,47,47,47,47,46,47,47,46,46,46,47,47,46,46,46,47,47,46,46,47,46,46,47,46,46,47,47,47,46,46,46,47,47,47,47,47,47,47,47,47,46,47,47,47,46,46,46,47,47,46,47,46,47,47,47,46,46,47,46,46,47,46,46,47,47,46,47,47,47,46,46,47,47,47,47,47,47,47,47,46,46,46,46,47,46,46,47,46,46,47,46,47,0,0,0,0,0,0,0,0,0,0,0,0,
0,0,0,0,47,46,46,46,46,47,47,47,46,46,47,47,46,46,47,47,47,47,46,47,47,47,47,46,46,46,47,47,47,47,47,47,47,47,46,47,46,46,47,46,47,46,47,46,46,47,46,46,46,47,46,47,46,47,46,46,47,46,46,47,47,47,46,46,46,47,46,46,46,46,46,46,47,46,47,47,46,46,46,47,47,46,47,46,46,46,46,46,46,47,46,47,47,47,47,46,0,0,0,0,0,0,0,0,0,0,0,0,
0,0,0,0,47,46,46,46,47,46,46,47,47,47,47,47,46,47,47,47,46,47,47,46,47,46,47,47,46,46,46,47,47,47,46,46,46,47,47,46,47,46,47,46,47,46,47,47,46,47,46,47,46,46,46,47,46,47,47,47,47,47,47,46,47,47,46,47,46,46,47,46,46,46,47,46,47,46,47,46,46,47,47,47,47,47,46,46,47,47,46,46,46,47,46,47,47,47,46,47,0,0,0,0,0,0,0,0,0,0,0,0,
0,0,0,0,46,46,47,47,46,46,47,47,47,47,46,46,47,47,46,46,46,46,46,47,47,47,47,46,47,47,47,47,46,47,47,46,46,47,46,47,46,46,46,46,47,46,46,47,46,47,47,46,47,47,47,47,47,46,46,47,47,46,46,47,47,47,46,46,46,47,47,47,46,47,46,46,47,47,46,47,47,46,47,47,46,47,46,46,46,46,47,46,47,47,47,47,46,47,47,47,0,0,0,0,0,0,0,0,0,0,0,0,
0,0,0,0,46,47,47,47,47,46,47,46,46,46,46,46,46,47,47,46,46,46,46,46,47,47,47,46,46,47,47,47,46,46,46,47,46,47,47,46,47,47,46,47,47,47,46,46,47,46,46,47,46,47,47,46,47,47,47,46,47,47,46,47,47,46,46,46,46,47,46,47,46,47,46,46,46,47,46,46,46,46,47,46,46,46,47,47,46,47,46,46,46,47,47,47,46,47,46,47,0,0,0,0,0,0,0,0,0,0,0,0
</data>
 </layer>
 <layer id="2" name="walls" width="112" height="96">
  <data encoding="csv">
0,0,0,0,0,0,0,0,0,0,0,0,0,0,0,0,0,0,0,0,0,0,0,0,0,0,0,0,0,0,0,0,0,0,0,0,0,0,0,0,0,0,0,0,0,0,0,0,0,0,0,0,0,0,0,0,0,0,0,0,0,0,0,0,0,0,0,0,0,0,0,0,0,0,0,0,0,0,0,0,0,0,0,0,0,0,0,0,0,0,0,0,0,0,0,0,0,0,0,0,0,0,0,0,0,0,0,0,0,0,0,0,
0,0,0,0,0,0,0,0,0,0,0,0,0,0,0,0,0,0,0,0,0,0,0,0,0,0,0,0,0,0,0,0,0,0,0,0,0,0,0,0,0,0,0,0,0,0,0,0,0,0,0,0,0,0,0,0,0,0,0,0,0,0,0,0,0,0,0,0,0,0,0,0,0,0,0,0,0,0,0,0,0,0,0,0,0,0,0,0,0,0,0,0,0,0,0,0,0,0,0,0,0,0,0,0,0,0,0,0,0,0,0,0,
0,0,0,0,0,0,0,0,0,0,0,0,0,0,0,0,0,0,0,0,0,0,0,0,0,0,0,0,0,0,0,0,0,0,0,0,0,0,0,0,0,0,0,0,0,0,0,0,0,0,0,0,0,0,0,0,0,0,0,0,0,0,0,0,0,0,0,0,0,0,0,0,0,0,0,0,0,0,0,0,0,0,0,0,0,0,0,0,0,0,0,0,0,0,0,0,0,0,0,0,0,0,0,0,0,0,0,0,0,0,0,0,
0,0,0,0,0,0,0,0,0,0,0,0,0,0,0,0,0,0,0,0,0,0,0,0,0,0,0,0,0,0,0,0,0,0,0,0,0,0,0,0,0,0,0,0,0,0,0,0,0,0,0,0,0,0,0,0,0,0,0,0,0,0,0,0,0,0,0,0,0,0,0,0,0,0,0,0,0,0,0,0,0,0,0,0,0,0,0,0,0,0,0,0,0,0,0,0,0,0,0,0,0,0,0,0,0,0,0,0,0,0,0,0,
0,0,0,0,0,0,0,0,0,0,0,0,0,0,0,0,0,0,0,0,0,0,0,0,0,0,0,0,0,0,0,0,0,0,0,0,0,0,0,0,0,0,0,0,0,0,0,0,0,0,0,0,0,0,0,0,0,0,0,0,0,0,0,0,0,0,0,0,0,0,0,0,0,0,0,0,0,0,0,0,0,0,0,0,0,0,0,0,0,0,0,0,0,0,0,0,0,0,0,0,0,0,0,0,0,0,0,0,0,0,0,0,
0,0,0,0,0,0,0,0,0,0,0,0,0,0,0,0,0,0,0,0,0,0,0,0,0,0,0,0,0,0,0,0,0,0,0,0,0,0,0,0,0,0,0,0,0,0,0,0,0,0,0,0,0,0,0,0,0,0,0,0,0,0,0,0,0,0,0,0,0,0,0,0,0,0,0,0,0,0,0,0,0,0,0,0,0,0,0,0,0,0,0,0,0,0,0,0,0,0,0,0,0,0,0,0,0,0,0,0,0,0,0,0,
0,0,0,0,0,0,0,0,0,0,0,0,0,0,0,0,0,0,0,0,0,0,0,0,0,0,0,0,0,0,0,0,0,0,0,0,0,0,0,0,0,0,0,0,0,0,0,0,0,0,0,0,0,0,0,0,0,0,0,0,0,0,0,0,0,0,0,0,0,0,0,0,0,0,0,0,0,0,0,0,0,0,0,0,0,0,0,0,0,0,0,0,0,0,0,0,0,0,0,0,0,0,0,0,0,0,0,0,0,0,0,0,
0,0,0,0,0,0,0,0,0,0,0,0,0,0,0,0,0,0,0,0,0,0,0,0,0,0,0,0,0,0,0,0,0,0,0,0,0,0,0,0,0,0,0,0,0,0,0,0,0,0,0,0,0,0,0,0,0,0,0,0,0,0,0,0,0,0,0,0,0,0,0,0,0,0,0,0,0,0,0,0,0,0,0,0,0,0,0,0,0,0,0,0,0,0,0,0,0,0,0,0,0,0,0,0,0,0,0,0,0,0,0,0,
0,0,0,0,0,0,0,0,0,0,0,0,0,0,0,0,0,0,0,0,0,0,0,0,0,0,0,0,0,0,0,0,0,0,0,0,0,0,0,0,0,0,0,0,0,0,0,0,0,0,0,0,0,0,0,0,0,0,0,0,0,0,0,0,0,0,0,0,0,0,0,0,0,0,0,0,0,0,0,0,0,0,0,0,0,0,0,0,0,0,0,0,0,0,0,0,0,0,0,0,0,0,0,0,0,0,0,0,0,0,0,0,
0,0,0,0,0,0,0,0,0,0,0,0,0,0,0,0,0,0,0,0,0,0,0,0,0,0,0,0,0,0,0,0,0,0,0,0,0,0,0,0,0,0,0,0,0,0,0,0,0,0,0,0,0,0,0,0,0,0,0,0,0,0,0,0,0,0,0,0,0,0,0,0,0,0,0,0,0,0,0,0,0,0,0,0,0,0,0,0,0,0,0,0,0,0,0,0,0,0,0,0,0,0,0,0,0,0,0,0,0,0,0,0,
0,0,0,0,0,0,0,0,0,0,0,0,0,0,0,0,0,0,0,0,0,0,0,0,0,0,0,0,0,0,0,0,0,0,0,0,0,0,0,0,0,0,0,0,0,0,0,0,0,0,0,0,0,0,0,0,0,0,0,0,0,0,0,0,0,0,0,0,0,0,0,0,0,0,0,0,0,0,0,0,0,0,0,0,0,0,0,0,0,0,0,0,0,0,0,0,0,0,0,0,0,0,0,0,0,0,0,0,0,0,0,0,
0,0,0,0,0,0,0,0,0,0,0,0,0,0,0,0,0,0,0,0,0,0,0,0,0,0,0,0,0,0,0,0,0,0,0,0,0,0,0,0,0,0,0,0,0,0,0,0,0,0,0,0,0,0,0,0,0,0,0,0,0,0,0,0,0,0,0,0,0,0,0,0,0,0,0,0,0,0,0,0,0,0,0,0,0,0,0,0,0,0,0,0,0,0,0,0,0,0,0,0,0,0,0,0,0,0,0,0,0,0,0,0,
0,0,0,0,0,0,0,0,0,0,0,0,0,0,0,0,0,0,0,0,0,0,0,0,0,0,0,0,0,0,0,0,0,0,0,0,0,0,0,0,0,0,0,0,0,0,0,0,0,0,0,0,0,0,0,0,0,0,0,0,0,0,0,0,0,0,0,0,0,0,0,0,0,0,0,0,0,0,0,0,0,0,0,0,0,0,0,0,0,0,0,0,0,0,0,0,0,0,0,0,0,0,0,0,0,0,0,0,0,0,0,0,
0,0,0,0,0,0,0,0,0,0,0,0,0,0,0,0,0,0,0,0,0,0,0,0,0,0,0,0,0,0,0,0,0,0,0,0,0,0,0,0,0,0,0,0,0,0,0,0,0,0,0,0,0,0,0,0,0,0,0,0,0,0,0,0,0,0,0,0,0,0,0,0,0,0,0,0,0,0,0,0,0,0,0,0,0,0,0,0,0,0,0,0,0,0,0,0,0,0,0,0,0,0,0,0,0,0,0,0,0,0,0,0,
0,0,0,0,0,0,0,0,0,0,0,0,0,0,0,0,0,0,0,0,0,0,0,0,0,0,0,0,0,0,0,0,0,0,0,0,0,0,0,0,0,0,0,0,0,0,0,0,0,0,0,0,0,0,0,0,0,0,0,0,0,0,0,0,0,0,0,0,0,0,0,0,0,0,0,0,0,0,0,0,0,0,0,0,0,0,0,0,0,0,0,0,0,0,0,0,0,0,0,0,0,0,0,0,0,0,0,0,0,0,0,0,
0,0,0,0,0,0,0,0,0,0,0,0,0,0,0,0,0,0,0,0,0,0,0,0,0,0,0,0,0,0,0,0,0,0,0,0,0,0,0,0,0,0,0,0,0,0,0,0,0,0,0,0,0,0,0,0,0,0,0,0,0,0,0,0,0,0,0,0,0,0,0,0,0,0,0,0,0,0,0,0,0,0,0,0,0,0,0,0,0,0,0,0,0,0,0,0,0,0,0,0,0,0,0,0,0,0,0,0,0,0,0,0,
0,0,0,0,0,0,0,0,0,0,0,0,0,0,0,0,0,0,0,0,0,0,0,0,0,0,0,0,0,0,0,0,0,0,0,0,0,0,0,0,0,0,0,0,0,0,0,0,0,0,0,0,0,0,0,0,0,0,0,0,0,0,0,0,0,0,0,0,0,0,0,0,0,0,0,0,0,0,0,0,0,0,0,0,0,0,0,0,0,0,0,0,0,0,0,0,0,0,0,0,0,0,0,0,0,0,0,0,0,0,0,0,
0,0,0,0,0,0,0,0,0,0,0,0,0,0,0,0,0,0,0,0,0,0,0,0,0,0,0,0,0,0,0,0,0,0,0,0,0,0,0,0,0,0,0,0,0,0,0,0,0,0,0,0,0,0,0,0,0,0,0,0,0,0,0,0,0,0,0,0,0,0,0,0,0,0,0,0,0,0,0,0,0,0,0,0,0,0,0,0,0,0,0,0,0,0,0,0,0,0,0,0,0,0,0,0,0,0,0,0,0,0,0,0,
0,0,0,0,0,0,0,0,0,0,0,0,0,0,0,0,0,0,0,0,0,0,0,0,0,0,0,0,0,0,0,0,0,0,0,0,0,0,0,0,0,0,0,0,0,0,0,0,0,0,0,0,0,0,0,0,0,0,0,0,0,0,0,0,0,0,0,0,0,0,0,0,0,0,0,0,0,0,0,0,0,0,0,0,0,0,0,0,0,0,0,0,0,0,0,0,0,0,0,0,0,0,0,0,0,0,0,0,0,0,0,0,
0,0,0,0,0,0,0,0,0,0,0,0,0,0,0,0,0,0,0,0,0,0,0,0,0,0,0,0,0,0,0,0,0,0,0,0,0,0,0,0,0,0,0,0,0,0,0,0,0,0,0,0,0,0,0,0,0,0,0,0,0,0,0,0,0,0,0,0,0,0,0,0,0,0,0,0,0,0,0,0,0,0,0,0,0,0,0,0,0,0,0,0,0,0,0,0,0,0,0,0,0,0,0,0,0,0,0,0,0,0,0,0,
0,0,0,0,0,0,0,0,0,0,0,0,0,0,0,0,0,0,0,0,0,0,0,0,0,0,0,0,0,0,0,0,0,0,0,0,0,0,0,0,0,0,0,0,0,0,0,0,0,0,0,0,0,0,0,0,0,0,0,0,0,0,0,0,0,0,0,0,0,0,0,0,0,0,0,0,0,0,0,0,0,0,0,0,0,0,0,0,0,0,0,0,0,0,0,0,0,0,0,0,0,0,0,0,0,0,0,0,0,0,0,0,
0,0,0,0,0,0,0,0,0,0,0,0,0,0,0,0,0,0,0,0,0,0,0,0,0,0,0,0,0,0,0,0,0,0,0,0,0,0,0,0,0,0,0,0,0,0,0,0,0,0,0,0,0,0,0,0,0,0,0,0,0,0,0,0,0,0,0,0,0,0,0,0,0,0,0,0,0,0,0,0,0,0,0,0,0,0,0,0,0,0,0,0,0,0,0,0,0,0,0,0,0,0,0,0,0,0,0,0,0,0,0,0,
0,0,0,0,0,0,0,0,0,0,0,0,0,0,0,0,0,0,0,0,0,0,0,0,0,0,0,0,0,0,0,0,0,0,0,0,0,0,0,0,0,0,0,0,0,0,0,0,0,0,0,0,0,0,0,0,0,0,0,0,0,0,0,0,0,0,0,0,0,0,0,0,0,0,0,0,0,0,0,0,0,0,0,0,0,0,0,0,0,0,0,0,0,0,0,0,0,0,0,0,0,0,0,0,0,0,0,0,0,0,0,0,
0,0,0,0,0,0,0,0,0,0,0,0,0,0,0,0,0,0,0,0,0,0,0,0,0,0,0,0,0,0,0,0,0,0,0,0,0,0,0,0,0,0,0,0,0,0,0,0,0,0,0,0,0,0,0,0,0,0,0,0,0,0,0,0,0,0,0,0,0,0,0,0,0,0,0,0,0,0,0,0,0,0,0,0,0,0,0,0,0,0,0,0,0,0,0,0,0,0,0,0,0,0,0,0,0,0,0,0,0,0,0,0,
0,0,0,0,0,0,0,0,0,0,0,0,0,0,0,0,0,0,0,0,0,0,0,0,0,0,0,0,0,0,0,0,0,0,0,0,0,0,0,0,0,0,0,0,0,0,0,0,0,0,0,0,0,0,0,0,0,0,0,0,0,0,0,0,0,0,0,0,0,0,0,0,0,0,0,0,0,0,0,0,0,0,0,0,0,0,0,0,0,0,0,0,0,0,0,0,0,0,0,0,0,0,0,0,0,0,0,0,0,0,0,0,
0,0,0,0,0,0,0,0,0,0,0,0,0,0,0,0,0,0,0,0,0,0,0,0,0,0,0,0,0,0,0,0,0,0,0,0,0,0,0,0,0,0,0,0,0,0,0,0,0,0,0,0,0,0,0,0,0,0,0,0,0,0,0,0,0,0,0,0,0,0,0,0,0,0,0,0,0,0,0,0,0,0,0,0,0,0,0,0,0,0,0,0,0,0,0,0,0,0,0,0,0,0,0,0,0,0,0,0,0,0,0,0,
0,0,0,0,0,0,0,0,0,0,0,0,0,0,0,0,0,0,0,0,0,0,0,0,0,0,0,0,0,0,0,0,0,0,0,0,0,0,0,0,0,0,0,0,0,0,0,0,0,0,0,0,0,0,0,0,0,0,0,0,0,0,0,0,0,0,0,0,0,0,0,0,0,0,0,0,0,0,0,0,0,0,0,0,0,0,0,0,0,0,0,0,0,0,0,0,0,0,0,0,0,0,0,0,0,0,0,0,0,0,0,0,
0,0,0,0,0,0,0,0,0,0,0,0,0,0,0,0,0,0,0,0,0,0,0,0,0,0,0,0,0,0,0,0,0,0,0,0,0,0,0,0,0,0,0,0,0,0,0,0,0,0,0,0,0,0,0,0,0,0,0,0,0,0,0,0,0,0,0,0,0,0,0,0,0,0,0,0,0,0,0,0,0,0,0,0,0,0,0,0,0,0,0,0,0,0,0,0,0,0,0,0,0,0,0,0,0,0,0,0,0,0,0,0,
0,0,0,0,0,0,0,0,0,0,0,0,0,0,0,0,0,0,0,0,0,0,0,0,0,0,0,0,0,0,0,0,0,0,0,0,0,0,0,0,0,0,0,0,0,0,0,0,0,0,0,0,0,0,0,0,0,0,0,0,0,0,0,0,0,0,0,0,0,0,0,0,0,0,0,0,0,0,0,0,0,0,0,0,0,0,0,0,0,0,0,0,0,0,0,0,0,0,0,0,0,0,0,0,0,0,0,0,0,0,0,0,
0,0,0,0,0,0,0,0,0,0,0,0,0,0,0,0,0,0,0,0,0,0,0,0,0,0,0,0,0,0,0,0,0,0,0,0,0,0,0,0,0,0,0,0,0,0,0,0,0,0,0,0,0,0,0,0,0,0,0,0,0,0,0,0,0,0,0,0,0,0,0,0,0,0,0,0,0,0,0,0,0,0,0,0,0,0,0,0,0,0,0,0,0,0,0,0,0,0,0,0,0,0,0,0,0,0,0,0,0,0,0,0,
0,0,0,0,0,0,0,0,0,0,0,0,0,0,0,0,0,0,0,0,0,0,0,0,0,0,0,0,0,0,0,0,0,0,0,0,0,0,0,0,0,0,0,0,0,0,0,0,0,0,0,0,0,0,0,0,0,0,0,0,0,0,0,0,0,0,0,0,0,0,0,0,0,0,0,0,0,0,0,0,0,0,0,0,0,0,0,0,0,0,0,0,0,0,0,0,0,0,0,0,0,0,0,0,0,0,0,0,0,0,0,0,
0,0,0,0,0,0,0,0,0,0,0,0,0,0,0,0,0,0,0,0,0,0,0,0,0,0,0,0,0,0,0,0,0,0,0,0,0,0,0,0,0,0,0,0,0,0,0,0,0,0,0,0,0,0,0,0,0,0,0,0,0,0,0,0,0,0,0,0,0,0,0,0,0,0,0,0,0,0,0,0,0,0,0,0,0,0,0,0,0,0,0,0,0,0,0,0,0,0,0,0,0,0,0,0,0,0,0,0,0,0,0,0,
0,0,0,0,0,0,0,0,0,0,0,0,0,0,0,0,0,0,0,0,0,0,0,0,0,0,0,0,0,0,0,0,0,0,0,0,0,0,0,0,0,0,0,0,0,0,0,0,0,0,0,0,0,0,0,0,0,0,0,0,0,0,0,0,0,0,0,0,0,0,0,0,0,0,0,0,0,0,0,0,0,0,0,0,0,0,0,0,0,0,0,0,0,0,0,0,0,0,0,0,0,0,0,0,0,0,0,0,0,0,0,0,
0,0,0,0,0,0,0,0,0,0,0,0,0,0,0,0,0,0,0,0,0,0,0,0,0,0,0,0,0,0,0,0,0,0,0,0,0,0,0,0,0,0,0,0,0,0,0,0,0,0,0,0,0,0,0,0,0,0,0,0,0,0,0,0,0,0,0,0,0,0,0,0,0,0,0,0,0,0,0,0,0,0,0,0,0,0,0,0,0,0,0,0,0,0,0,0,0,0,0,0,0,0,0,0,0,0,0,0,0,0,0,0,
0,0,0,0,0,0,0,0,0,0,0,0,0,0,0,0,0,0,0,0,0,0,0,0,0,0,0,0,0,0,0,0,0,0,0,0,0,0,0,0,0,0,0,0,0,0,0,0,0,0,0,0,0,0,0,0,0,0,0,0,0,0,0,0,0,0,0,0,0,0,0,0,0,0,0,0,0,0,0,0,0,0,0,0,0,0,0,0,0,0,0,0,0,0,0,0,0,0,0,0,0,0,0,0,0,0,0,0,0,0,0,0,
0,0,0,0,0,0,0,0,0,0,0,0,0,0,0,0,0,0,0,0,0,0,0,0,0,0,0,0,0,0,0,0,0,0,0,0,0,0,0,0,0,0,0,0,0,0,0,0,0,0,0,0,0,0,0,0,0,0,0,0,0,0,0,0,0,0,0,0,0,0,0,0,0,0,0,0,0,0,0,0,0,0,0,0,0,0,0,0,0,0,0,0,0,0,0,0,0,0,0,0,0,0,0,0,0,0,0,0,0,0,0,0,
0,0,0,0,0,0,0,0,0,0,0,0,0,0,0,0,0,0,0,0,0,0,0,0,0,0,0,0,0,0,0,0,0,0,0,0,0,0,0,0,0,0,0,0,0,0,0,0,0,0,0,0,0,0,0,0,0,0,0,0,0,0,0,0,0,0,0,0,0,0,0,0,0,0,0,0,0,0,0,0,0,0,0,0,0,0,0,0,0,0,0,0,0,0,0,0,0,0,0,0,0,0,0,0,0,0,0,0,0,0,0,0,
0,0,0,0,0,0,0,0,0,0,0,0,0,0,0,0,0,0,0,0,0,0,0,0,0,0,0,0,0,0,0,0,0,0,0,0,0,0,0,0,0,0,0,0,0,0,0,0,0,0,0,0,0,0,0,0,0,0,0,0,0,0,0,0,0,0,0,0,0,0,0,0,0,0,0,0,0,0,0,0,0,0,0,0,0,0,0,0,0,0,0,0,0,0,0,0,0,0,0,0,0,0,0,0,0,0,0,0,0,0,0,0,
0,0,0,0,0,0,0,0,0,0,0,0,0,0,0,0,0,0,0,0,0,0,0,0,0,0,0,0,0,0,0,0,0,0,0,0,0,0,0,0,0,0,0,0,0,0,0,0,0,0,0,0,0,0,0,0,0,0,0,0,0,0,0,0,0,0,0,0,0,0,0,0,0,0,0,0,0,0,0,0,0,0,0,0,0,0,0,0,0,0,0,0,0,0,0,0,0,0,0,0,0,0,0,0,0,0,0,0,0,0,0,0,
0,0,0,0,0,0,0,0,0,0,0,0,0,0,0,0,0,0,0,0,0,0,0,0,0,0,0,0,0,0,0,0,0,0,0,0,0,0,0,0,0,0,0,0,0,0,0,0,0,0,0,0,0,0,0,0,0,0,0,0,0,0,0,0,0,0,0,0,0,0,0,0,0,0,0,0,0,0,0,0,0,0,0,0,0,0,0,0,0,0,0,0,0,0,0,0,0,0,0,0,0,0,0,0,0,0,0,0,0,0,0,0,
0,0,0,0,0,0,0,0,0,0,0,0,0,0,0,0,0,0,0,0,0,0,0,0,0,0,0,0,0,0,0,0,0,0,0,0,0,0,0,0,0,0,0,0,0,0,0,0,0,0,0,0,0,0,0,0,0,0,0,0,0,0,0,0,0,0,0,0,0,0,0,0,0,0,0,0,0,0,0,0,0,0,0,0,0,0,0,0,0,0,0,0,0,0,0,0,0,0,0,0,0,0,0,0,0,0,0,0,0,0,0,0,
0,0,0,0,0,0,0,0,0,0,0,0,0,0,0,0,0,0,0,0,0,0,0,0,0,0,0,0,0,0,0,0,0,0,0,0,0,0,0,0,0,0,0,0,0,0,0,0,0,0,0,0,0,0,0,0,0,0,0,0,0,0,0,0,0,0,0,0,0,0,0,0,0,0,0,0,0,0,0,0,0,0,0,0,0,0,0,0,0,0,0,0,0,0,0,0,0,0,0,0,0,0,0,0,0,0,0,0,0,0,0,0,
0,0,0,0,0,0,0,0,0,0,0,0,0,0,0,0,0,0,0,0,0,0,0,0,0,0,0,0,0,0,0,0,0,0,0,0,0,0,0,0,0,0,0,0,0,0,0,0,0,0,0,0,0,0,0,0,0,0,0,0,0,0,0,0,0,0,0,0,0,0,0,0,0,0,0,0,0,0,0,0,0,0,0,0,0,0,0,0,0,0,0,0,0,0,0,0,0,0,0,0,0,0,0,0,0,0,0,0,0,0,0,0,
0,0,0,0,0,0,0,0,0,0,0,0,0,0,0,0,0,0,0,0,0,0,0,0,0,0,0,0,0,0,0,0,0,0,0,0,0,0,0,0,0,0,0,0,0,0,0,0,0,0,0,0,0,0,0,0,0,0,0,0,0,0,0,0,0,0,0,0,0,0,0,0,0,0,0,0,0,0,0,0,0,0,0,0,0,0,0,0,0,0,0,0,0,0,0,0,0,0,0,0,0,0,0,0,0,0,0,0,0,0,0,0,
0,0,0,0,0,0,0,0,0,0,0,0,0,0,0,0,0,0,0,0,0,0,0,0,0,0,0,0,0,0,0,0,0,0,0,0,0,0,0,0,0,0,0,0,0,0,0,0,0,0,0,0,0,0,0,0,0,0,0,0,0,0,0,0,0,0,0,0,0,0,0,0,0,0,0,0,0,0,0,0,0,0,0,0,0,0,0,0,0,0,0,0,0,0,0,0,0,0,0,0,0,0,0,0,0,0,0,0,0,0,0,0,
0,0,0,0,0,0,0,0,0,0,0,0,0,0,0,0,0,0,0,0,0,0,0,0,0,0,0,0,0,0,0,0,0,0,0,0,0,0,0,0,0,82,0,0,0,0,0,0,0,0,0,0,0,0,0,0,0,0,0,0,0,0,0,0,0,0,0,0,0,0,0,0,0,0,0,0,0,0,0,0,0,0,0,0,0,0,0,0,0,0,0,0,0,0,0,0,0,0,0,0,0,0,0,0,0,0,0,0,0,0,0,0,
0,0,0,0,0,0,0,0,0,0,0,0,0,0,0,0,0,0,0,0,0,0,0,0,0,0,0,0,0,0,0,0,0,0,0,0,0,0,82,0,0,82,0,0,0,0,0,0,0,0,0,0,0,0,0,0,0,0,0,0,0,0,0,0,0,0,0,0,0,0,0,0,0,0,0,0,0,0,0,0,0,0,0,0,0,0,0,0,0,0,0,0,0,0,0,0,0,0,0,0,0,0,0,0,0,0,0,0,0,0,0,0,
0,0,0,0,0,0,0,0,0,0,0,0,0,0,0,0,0,0,0,0,0,0,0,0,0,0,0,0,0,0,0,0,0,0,0,0,0,0,0,0,0,0,0,0,0,0,0,0,0,0,0,0,0,0,0,0,0,0,0,0,0,0,0,0,0,0,0,0,0,0,0,0,0,0,0,0,0,0,0,0,0,0,0,0,0,0,0,0,0,0,0,0,0,0,0,0,0,0,0,0,0,0,0,0,0,0,0,0,0,0,0,0,
0,0,0,0,0,0,0,0,0,0,0,0,0,0,0,0,0,0,0,0,0,0,0,0,0,0,0,0,0,0,0,0,0,0,0,0,0,0,0,0,0,0,0,0,0,0,0,0,0,0,0,0,0,0,0,0,0,0,0,0,0,0,0,0,0,0,0,0,0,0,0,0,0,0,0,0,0,0,0,0,0,0,0,0,0,0,0,0,0,0,0,0,0,0,0,0,0,0,0,0,0,0,0,0,0,0,0,0,0,0,0,0,
0,0,0,0,0,0,0,0,0,0,0,0,0,0,0,0,0,0,0,0,0,0,0,0,0,0,0,0,0,0,0,0,0,0,0,0,0,0,0,0,0,0,0,0,0,0,0,0,0,0,0,0,0,0,0,0,0,0,0,0,0,0,0,0,0,0,0,0,0,0,0,0,0,0,0,0,0,0,0,0,0,0,0,0,0,0,0,0,0,0,0,0,0,0,0,0,0,0,0,0,0,0,0,0,0,0,0,0,0,0,0,0,
0,0,0,0,0,0,0,0,0,0,0,0,0,0,0,0,0,0,0,0,0,0,0,0,0,0,0,0,0,0,0,0,0,0,0,0,0,0,0,0,0,0,0,0,0,0,0,0,0,0,0,0,0,0,0,0,0,0,0,0,0,0,0,0,0,0,0,0,0,0,0,0,0,0,0,0,0,0,0,0,0,0,0,0,0,0,0,0,0,0,0,0,0,0,0,0,0,0,0,0,0,0,0,0,0,0,0,0,0,0,0,0,
0,0,0,0,0,0,0,0,0,0,0,0,0,0,0,0,0,0,0,0,0,0,0,0,0,0,0,0,0,0,0,0,0,0,0,0,0,0,0,0,0,0,0,0,0,0,0,0,0,0,0,0,0,0,0,0,0,0,0,0,0,0,0,0,0,0,0,0,0,0,0,0,0,0,0,0,0,0,0,0,0,0,0,0,0,0,0,0,0,0,0,0,0,0,0,0,0,0,0,0,0,0,0,0,0,0,0,0,0,0,0,0,
0,0,0,0,0,0,0,0,0,0,0,0,0,0,0,0,0,0,0,0,0,0,0,0,0,0,0,0,0,0,0,0,0,0,0,0,0,0,0,0,0,0,0,0,0,0,0,0,0,0,0,0,0,0,0,0,0,0,0,0,0,0,0,0,0,0,0,0,0,0,0,0,0,0,0,0,0,0,0,0,0,0,0,0,0,0,0,0,0,0,0,0,0,0,0,0,0,0,0,0,0,0,0,0,0,0,0,0,0,0,0,0,
0,0,0,0,0,0,0,0,0,0,0,0,0,0,0,0,0,0,0,0,0,0,0,0,0,0,0,0,0,0,0,0,0,0,0,0,0,0,0,0,0,0,0,0,0,0,0,0,0,0,0,0,0,0,0,0,0,0,0,0,0,0,0,0,0,0,0,0,0,0,0,0,0,0,0,0,0,0,0,0,0,0,0,0,0,0,0,0,0,0,0,0,0,0,0,0,0,0,0,0,0,0,0,0,0,0,0,0,0,0,0,0,
0,0,0,0,0,0,0,0,0,0,0,0,0,0,0,0,0,0,0,0,0,0,0,0,0,0,0,0,0,0,0,0,0,0,0,0,0,0,0,0,0,0,0,0,0,0,0,0,0,73,74,74,74,74,74,74,74,74,74,74,74,74,74,74,74,74,74,75,0,0,0,0,0,0,0,0,0,0,0,0,0,0,0,0,0,0,0,0,0,0,0,0,0,0,0,0,0,0,0,0,0,0,0,0,0,0,0,0,0,0,0,0,
0,0,0,0,0,0,0,0,0,0,0,0,0,0,0,0,0,0,0,0,0,0,0,0,0,0,0,0,0,0,0,0,0,0,0,0,0,0,0,0,0,0,0,0,0,0,0,0,0,81,0,0,0,0,0,0,0,0,0,0,0,0,0,0,0,0,0,83,0,0,0,0,0,0,0,0,0,0,0,0,0,0,0,0,0,0,0,0,0,0,0,0,0,0,0,0,0,0,0,0,0,0,0,0,0,0,0,0,0,0,0,0,
0,0,0,0,0,0,0,0,0,0,0,0,0,0,0,0,0,0,0,0,0,0,0,0,0,0,0,0,0,0,0,0,0,0,0,0,0,0,0,0,0,0,0,0,0,0,0,0,0,81,0,0,0,0,0,0,0,0,0,0,0,0,0,0,0,0,0,83,0,0,0,0,0,0,0,0,0,0,0,0,0,0,0,0,0,0,0,0,0,0,0,0,0,0,0,0,0,0,0,0,0,0,0,0,0,0,0,0,0,0,0,0,
0,0,0,0,0,0,0,0,0,0,0,0,0,0,0,0,0,0,0,0,0,0,0,0,0,0,0,0,0,0,0,0,0,0,0,0,0,0,0,0,0,0,0,0,0,0,0,0,0,81,0,0,0,0,0,0,0,0,0,0,0,0,0,0,0,0,0,83,0,0,0,0,0,0,0,0,0,0,0,0,0,0,0,0,0,0,0,0,0,0,0,0,0,0,0,0,0,0,0,0,0,0,0,0,0,0,0,0,0,0,0,0,
0,0,0,0,0,0,0,0,0,0,0,0,0,0,0,0,0,0,0,0,0,0,0,0,0,0,0,0,0,0,0,0,0,0,0,0,0,0,0,0,0,0,0,0,0,0,0,0,0,81,0,0,0,0,0,0,0,0,0,0,0,0,0,0,0,0,0,83,0,0,0,0,0,0,0,0,0,0,0,0,0,0,0,0,0,0,0,0,0,0,0,0,0,0,0,0,0,0,0,0,0,0,0,0,0,0,0,0,0,0,0,0,
0,0,0,0,0,0,0,0,0,0,0,0,0,0,0,0,0,0,0,0,0,0,0,0,0,0,0,0,0,0,0,0,0,0,0,0,0,0,0,0,0,0,0,0,0,0,0,0,0,81,0,0,0,0,0,0,0,0,0,0,0,0,0,0,0,0,0,83,0,0,0,0,0,0,0,0,0,0,0,0,0,0,0,0,0,0,0,0,0,0,0,0,0,0,0,0,0,0,0,0,0,0,0,0,0,0,0,0,0,0,0,0,
0,0,0,0,0,0,0,0,0,0,0,0,0,0,0,0,0,0,0,0,0,0,0,0,0,0,0,0,0,0,0,0,0,0,0,0,0,0,0,0,0,0,0,0,0,0,0,0,0,81,0,0,0,0,0,0,0,0,0,0,0,0,0,0,0,0,0,83,0,0,0,0,0,0,0,0,0,0,0,0,0,0,0,0,0,0,0,0,0,0,0,0,0,0,0,0,0,0,0,0,0,0,0,0,0,0,0,0,0,0,0,0,
0,0,0,0,0,0,0,0,0,0,0,0,0,0,0,0,0,0,0,0,0,0,0,0,0,0,0,0,0,0,0,0,0,0,0,0,0,0,0,0,0,0,0,0,0,0,0,0,0,81,0,0,0,0,0,0,0,0,0,0,0,0,0,0,0,0,0,83,0,0,0,0,0,0,0,0,0,0,0,0,0,0,0,0,0,0,0,0,0,0,0,0,0,0,0,0,0,0,0,0,0,0,0,0,0,0,0,0,0,0,0,0,
0,0,0,0,0,0,0,0,0,0,0,0,0,0,0,0,0,0,0,0,0,0,0,0,0,0,0,0,0,0,0,0,0,0,0,0,0,0,0,0,0,0,0,0,0,0,0,0,0,81,0,0,0,0,0,0,0,0,0,0,0,0,0,0,0,0,0,83,0,0,0,0,0,0,0,0,0,0,0,0,0,0,0,0,0,0,0,0,0,0,0,0,0,0,0,0,0,0,0,0,0,0,0,0,0,0,0,0,0,0,0,0,
0,0,0,0,0,0,0,0,0,0,0,0,0,0,0,0,0,0,0,0,0,0,0,0,0,0,0,0,0,0,0,0,0,0,0,0,0,0,0,0,0,0,0,0,0,0,0,0,0,81,0,0,0,0,0,0,0,0,0,0,0,0,0,0,0,0,0,83,0,0,0,0,0,0,0,0,0,0,0,0,0,0,0,0,0,0,0,0,0,0,0,0,0,0,0,0,0,0,0,0,0,0,0,0,0,0,0,0,0,0,0,0,
0,0,0,0,0,0,0,0,0,0,0,0,0,0,0,0,0,0,0,0,0,0,0,0,0,0,0,0,0,0,0,0,0,0,0,0,0,0,0,0,0,0,0,0,0,0,0,0,0,89,90,90,65,0,0,66,90,90,90,90,90,90,90,90,90,90,90,91,0,0,0,0,0,0,0,0,0,0,0,0,0,0,0,0,0,0,0,0,0,0,0,0,0,0,0,0,0,0,0,0,0,0,0,0,0,0,0,0,0,0,0,0,
0,0,0,0,0,0,0,0,0,0,0,0,0,0,0,0,0,0,0,0,0,0,0,0,0,0,0,0,0,0,0,0,0,0,0,0,0,0,0,0,0,0,0,0,0,0,0,0,0,0,0,0,0,0,0,0,0,0,0,0,0,0,0,0,0,0,0,0,0,0,0,0,0,0,0,0,0,0,0,0,0,0,0,0,0,0,0,0,0,0,0,0,0,0,0,0,0,0,0,0,0,0,0,0,0,0,0,0,0,0,0,0,
0,0,0,0,0,0,0,0,0,0,0,0,0,0,0,0,0,0,0,0,0,0,0,0,0,0,0,0,0,0,0,0,0,0,0,0,0,0,0,0,0,0,0,0,0,0,0,0,0,0,0,0,0,0,0,0,0,0,0,0,0,0,0,0,0,0,0,0,0,0,0,0,0,0,0,0,0,0,0,0,0,0,0,0,0,0,0,0,0,0,0,0,0,0,0,0,0,0,0,0,0,0,0,0,0,0,0,0,0,0,0,0,
0,0,0,0,0,0,0,0,0,0,0,0,0,0,0,0,0,0,0,0,0,0,0,0,0,0,0,0,0,0,0,0,0,0,0,0,0,0,0,0,0,0,0,0,0,0,0,0,0,0,0,0,0,0,0,0,0,0,0,0,0,0,0,0,0,0,0,0,0,0,0,0,0,0,0,0,0,0,0,0,0,0,0,0,0,0,0,0,0,0,0,0,0,0,0,0,0,0,0,0,0,0,0,0,0,0,0,0,0,0,0,0,
0,0,0,0,0,0,0,0,0,0,0,0,0,0,0,0,0,0,0,0,0,0,0,0,0,0,0,0,0,0,0,0,0,0,0,0,0,0,0,0,0,0,0,0,0,0,0,0,0,0,0,0,0,0,0,0,0,0,0,0,0,0,0,0,0,0,0,0,0,0,0,0,0,0,0,0,0,0,0,0,0,0,0,0,0,0,0,0,0,0,0,0,0,0,0,0,0,0,0,0,0,0,0,0,0,0,0,0,0,0,0,0,
0,0,0,0,0,0,0,0,0,0,0,0,0,0,0,0,0,0,0,0,0,0,0,0,0,0,0,0,0,0,0,0,0,0,0,0,0,0,0,0,0,0,0,0,0,0,0,0,0,0,0,0,0,0,0,0,0,0,0,0,0,0,0,0,0,0,0,0,0,0,0,0,0,0,0,0,0,0,0,0,0,0,0,0,0,0,0,0,0,0,0,0,0,0,0,0,0,0,0,0,0,0,0,0,0,0,0,0,0,0,0,0,
0,0,0,0,0,0,0,0,0,0,0,0,0,0,0,0,0,0,0,0,0,0,0,0,0,0,0,0,0,0,0,0,0,0,0,0,0,0,0,0,0,0,0,0,0,0,0,0,0,0,0,0,0,0,0,0,0,0,0,0,0,0,0,0,0,0,0,0,0,0,0,0,0,0,0,0,0,0,0,0,0,0,0,0,0,0,0,0,0,0,0,0,0,0,0,0,0,0,0,0,0,0,0,0,0,0,0,0,0,0,0,0,
0,0,0,0,0,0,0,0,0,0,0,0,0,0,0,0,0,0,0,0,0,0,0,0,0,0,0,0,0,0,0,0,0,0,0,0,0,0,0,0,0,0,0,0,0,0,0,0,0,0,0,0,0,0,0,0,0,0,0,0,0,0,0,0,0,0,0,0,0,0,0,0,0,0,0,0,0,0,0,0,0,0,0,0,0,0,0,0,0,0,0,0,0,0,0,0,0,0,0,0,0,0,0,0,0,0,0,0,0,0,0,0,
0,0,0,0,0,0,0,0,0,0,0,0,0,0,0,0,0,0,0,0,0,0,0,0,0,0,0,0,0,0,0,0,0,0,0,0,0,0,0,0,0,0,0,0,0,0,0,0,0,0,0,0,0,0,0,0,0,0,0,0,0,0,0,0,0,0,0,0,0,0,0,0,0,0,0,0,0,0,0,0,0,0,0,0,0,0,0,0,0,0,0,0,0,0,0,0,0,0,0,0,0,0,0,0,0,0,0,0,0,0,0,0,
0,0,0,0,0,0,0,0,0,0,0,0,0,0,0,0,0,0,0,0,0,0,0,0,0,0,0,0,0,0,0,0,0,0,0,0,0,0,0,0,0,0,0,0,0,0,0,0,0,0,0,0,0,0,0,0,0,0,0,0,0,0,0,0,0,0,0,0,0,0,0,0,0,0,0,0,0,0,0,0,0,0,0,0,0,0,0,0,0,0,0,0,0,0,0,0,0,0,0,0,0,0,0,0,0,0,0,0,0,0,0,0,
0,0,0,0,0,0,0,0,0,0,0,0,0,0,0,0,0,0,0,0,0,0,0,0,0,0,0,0,0,0,0,0,0,0,0,0,0,0,0,0,0,0,0,0,0,0,0,0,0,0,0,0,0,0,0,0,0,0,0,0,0,0,0,0,0,0,0,0,0,0,0,0,0,0,0,0,0,0,0,0,0,0,0,0,0,0,0,0,0,0,0,0,0,0,0,0,0,0,0,0,0,0,0,0,0,0,0,0,0,0,0,0,
0,0,0,0,0,0,0,0,0,0,0,0,0,0,0,0,0,0,0,0,0,0,0,0,0,0,0,0,0,0,0,0,0,0,0,0,0,0,0,0,0,0,0,0,0,0,0,0,0,0,0,0,0,0,0,0,0,0,0,0,0,0,0,0,0,0,0,0,0,0,0,0,0,0,0,0,0,0,0,0,0,0,0,0,0,0,0,0,0,0,0,0,0,0,0,0,0,0,0,0,0,0,0,0,0,0,0,0,0,0,0,0,
0,0,0,0,0,0,0,0,0,0,0,0,0,0,0,0,0,0,0,0,0,0,0,0,0,0,0,0,0,0,0,0,0,0,0,0,0,0,0,0,0,0,0,0,0,0,0,0,0,0,0,0,0,0,0,0,0,0,0,0,0,0,0,0,0,0,0,0,0,0,0,0,0,0,0,0,0,0,0,0,0,0,0,0,0,0,0,0,0,0,0,0,0,0,0,0,0,0,0,0,0,0,0,0,0,0,0,0,0,0,0,0,
0,0,0,0,0,0,0,0,0,0,0,0,0,0,0,0,0,0,0,0,0,0,0,0,0,0,0,0,0,0,0,0,0,0,0,0,0,0,0,0,0,0,0,0,0,0,0,0,0,0,0,0,0,0,0,0,0,0,0,0,0,0,0,0,0,0,0,0,0,0,0,0,0,0,0,0,0,0,0,0,0,0,0,0,0,0,0,0,0,0,0,0,0,0,0,0,0,0,0,0,0,0,0,0,0,0,0,0,0,0,0,0,
0,0,0,0,0,0,0,0,0,0,0,0,0,0,0,0,0,0,0,0,0,0,0,0,0,0,0,0,0,0,0,0,0,0,0,0,0,0,0,0,0,0,0,0,0,0,0,0,0,0,0,0,0,0,0,0,0,0,0,0,0,0,0,0,0,0,0,0,0,0,0,0,0,0,0,0,0,0,0,0,0,0,0,0,0,0,0,0,0,0,0,0,0,0,0,0,0,0,0,0,0,0,0,0,0,0,0,0,0,0,0,0,
0,0,0,0,0,0,0,0,0,0,0,0,0,0,0,0,0,0,0,0,0,0,0,0,0,0,0,0,0,0,0,0,0,0,0,0,0,0,0,0,0,0,0,0,0,0,0,0,0,0,0,0,0,0,0,0,0,0,0,0,0,0,0,0,0,0,0,0,0,0,0,0,0,0,0,0,0,0,0,0,0,0,0,0,0,0,0,0,0,0,0,0,0,0,0,0,0,0,0,0,0,0,0,0,0,0,0,0,0,0,0,0,
0,0,0,0,0,0,0,0,0,0,0,0,0,0,0,0,0,0,0,0,0,0,0,0,0,0,0,0,0,0,0,0,0,0,0,0,0,0,0,0,0,0,0,0,0,0,0,0,0,0,0,0,0,0,0,0,0,0,0,0,0,0,0,0,0,0,0,0,0,0,0,0,0,0,0,0,0,0,0,0,0,0,0,0,0,0,0,0,0,0,0,0,0,0,0,0,0,0,0,0,0,0,0,0,0,0,0,0,0,0,0,0,
0,0,0,0,0,0,0,0,0,0,0,0,0,0,0,0,0,0,0,0,0,0,0,0,0,0,0,0,0,0,0,0,0,0,0,0,0,0,0,0,0,0,0,0,0,0,0,0,0,0,0,0,0,0,0,0,0,0,0,0,0,0,0,0,0,0,0,0,0,0,0,0,0,0,0,0,0,0,0,0,0,0,0,0,0,0,0,0,0,0,0,0,0,0,0,0,0,0,0,0,0,0,0,0,0,0,0,0,0,0,0,0,
0,0,0,0,0,0,0,0,0,0,0,0,0,0,0,0,0,0,0,0,0,0,0,0,0,0,0,0,0,0,0,0,0,0,0,0,0,0,0,0,0,0,0,0,0,0,0,0,0,0,0,0,0,0,0,0,0,0,0,0,0,0,0,0,0,0,0,0,0,0,0,0,0,0,0,0,0,0,0,0,0,0,0,0,0,0,0,0,0,0,0,0,0,0,0,0,0,0,0,0,0,0,0,0,0,0,0,0,0,0,0,0,
0,0,0,0,0,0,0,0,0,0,0,0,0,0,0,0,0,0,0,0,0,0,0,0,0,0,0,0,0,0,0,0,0,0,0,0,0,0,0,0,0,0,0,0,0,0,0,0,0,0,0,0,0,0,0,0,0,0,0,0,0,0,0,0,0,0,0,0,0,0,0,0,0,0,0,0,0,0,0,0,0,0,0,0,0,0,0,0,0,0,0,0,0,0,0,0,0,0,0,0,0,0,0,0,0,0,0,0,0,0,0,0,
0,0,0,0,0,0,0,0,0,0,0,0,0,0,0,0,0,0,0,0,0,0,0,0,0,0,0,0,0,0,0,0,0,0,0,0,0,0,0,0,0,0,0,0,0,0,0,0,0,0,0,0,0,0,0,0,0,0,0,0,0,0,0,0,0,0,0,0,0,0,0,0,0,0,0,0,0,0,0,0,0,0,0,0,0,0,0,0,0,0,0,0,0,0,0,0,0,0,0,0,0,0,0,0,0,0,0,0,0,0,0,0,
0,0,0,0,0,0,0,0,0,0,0,0,0,0,0,0,0,0,0,0,0,0,0,0,0,0,0,0,0,0,0,0,0,0,0,0,0,0,0,0,0,0,0,0,0,0,0,0,0,0,0,0,0,0,0,0,0,0,0,0,0,0,0,0,0,0,0,0,0,0,0,0,0,0,0,0,0,0,0,0,0,0,0,0,0,0,0,0,0,0,0,0,0,0,0,0,0,0,0,0,0,0,0,0,0,0,0,0,0,0,0,0,
0,0,0,0,0,0,0,0,0,0,0,0,0,0,0,0,0,0,0,0,0,0,0,0,0,0,0,0,0,0,0,0,0,0,0,0,0,0,0,0,0,0,0,0,0,0,0,0,0,0,0,0,0,0,0,0,0,0,0,0,0,0,0,0,0,0,0,0,0,0,0,0,0,0,0,0,0,0,0,0,0,0,0,0,0,0,0,0,0,0,0,0,0,0,0,0,0,0,0,0,0,0,0,0,0,0,0,0,0,0,0,0,
0,0,0,0,0,0,0,0,0,0,0,0,0,0,0,0,0,0,0,0,0,0,0,0,0,0,0,0,0,0,0,0,0,0,0,0,0,0,0,0,0,0,0,0,0,0,0,0,0,0,0,0,0,0,0,0,0,0,0,0,0,0,0,0,0,0,0,0,0,0,0,0,0,0,0,0,0,0,0,0,0,0,0,0,0,0,0,0,0,0,0,0,0,0,0,0,0,0,0,0,0,0,0,0,0,0,0,0,0,0,0,0,
0,0,0,0,0,0,0,0,0,0,0,0,0,0,0,0,0,0,0,0,0,0,0,0,0,0,0,0,0,0,0,0,0,0,0,0,0,0,0,0,0,0,0,0,0,0,0,0,0,0,0,0,0,0,0,0,0,0,0,0,0,0,0,0,0,0,0,0,0,0,0,0,0,0,0,0,0,0,0,0,0,0,0,0,0,0,0,0,0,0,0,0,0,0,0,0,0,0,0,0,0,0,0,0,0,0,0,0,0,0,0,0,
0,0,0,0,0,0,0,0,0,0,0,0,0,0,0,0,0,0,0,0,0,0,0,0,0,0,0,0,0,0,0,0,0,0,0,0,0,0,0,0,0,0,0,0,0,0,0,0,0,0,0,0,0,0,0,0,0,0,0,0,0,0,0,0,0,0,0,0,0,0,0,0,0,0,0,0,0,0,0,0,0,0,0,0,0,0,0,0,0,0,0,0,0,0,0,0,0,0,0,0,0,0,0,0,0,0,0,0,0,0,0,0,
0,0,0,0,0,0,0,0,0,0,0,0,0,0,0,0,0,0,0,0,0,0,0,0,0,0,0,0,0,0,0,0,0,0,0,0,0,0,0,0,0,0,0,0,0,0,0,0,0,0,0,0,0,0,0,0,0,0,0,0,0,0,0,0,0,0,0,0,0,0,0,0,0,0,0,0,0,0,0,0,0,0,0,0,0,0,0,0,0,0,0,0,0,0,0,0,0,0,0,0,0,0,0,0,0,0,0,0,0,0,0,0,
0,0,0,0,0,0,0,0,0,0,0,0,0,0,0,0,0,0,0,0,0,0,0,0,0,0,0,0,0,0,0,0,0,0,0,0,0,0,0,0,0,0,0,0,0,0,0,0,0,0,0,0,0,0,0,0,0,0,0,0,0,0,0,0,0,0,0,0,0,0,0,0,0,0,0,0,0,0,0,0,0,0,0,0,0,0,0,0,0,0,0,0,0,0,0,0,0,0,0,0,0,0,0,0,0,0,0,0,0,0,0,0,
0,0,0,0,0,0,0,0,0,0,0,0,0,0,0,0,0,0,0,0,0,0,0,0,0,0,0,0,0,0,0,0,0,0,0,0,0,0,0,0,0,0,0,0,0,0,0,0,0,0,0,0,0,0,0,0,0,0,0,0,0,0,0,0,0,0,0,0,0,0,0,0,0,0,0,0,0,0,0,0,0,0,0,0,0,0,0,0,0,0,0,0,0,0,0,0,0,0,0,0,0,0,0,0,0,0,0,0,0,0,0,0,
0,0,0,0,0,0,0,0,0,0,0,0,0,0,0,0,0,0,0,0,0,0,0,0,0,0,0,0,0,0,0,0,0,0,0,0,0,0,0,0,0,0,0,0,0,0,0,0,0,0,0,0,0,0,0,0,0,0,0,0,0,0,0,0,0,0,0,0,0,0,0,0,0,0,0,0,0,0,0,0,0,0,0,0,0,0,0,0,0,0,0,0,0,0,0,0,0,0,0,0,0,0,0,0,0,0,0,0,0,0,0,0,
0,0,0,0,0,0,0,0,0,0,0,0,0,0,0,0,0,0,0,0,0,0,0,0,0,0,0,0,0,0,0,0,0,0,0,0,0,0,0,0,0,0,0,0,0,0,0,0,0,0,0,0,0,0,0,0,0,0,0,0,0,0,0,0,0,0,0,0,0,0,0,0,0,0,0,0,0,0,0,0,0,0,0,0,0,0,0,0,0,0,0,0,0,0,0,0,0,0,0,0,0,0,0,0,0,0,0,0,0,0,0,0,
0,0,0,0,0,0,0,0,0,0,0,0,0,0,0,0,0,0,0,0,0,0,0,0,0,0,0,0,0,0,0,0,0,0,0,0,0,0,0,0,0,0,0,0,0,0,0,0,0,0,0,0,0,0,0,0,0,0,0,0,0,0,0,0,0,0,0,0,0,0,0,0,0,0,0,0,0,0,0,0,0,0,0,0,0,0,0,0,0,0,0,0,0,0,0,0,0,0,0,0,0,0,0,0,0,0,0,0,0,0,0,0
</data>
 </layer>
 <objectgroup id="7" name="Object Layer 1">
  <object id="1" name="player_spawn" type="spawn" x="872.5" y="949.5"/>
  <object id="2" name="monster_spawn" type="spawn" x="981.5" y="941.5"/>
 </objectgroup>
</map>
